/* XPM */
static char *collectible[] = {
/* columns rows colors chars-per-pixel */
"64 64 150 2 ",
"   c None",
".  c #130017",
"X  c #010025",
"o  c #0E0025",
"O  c #05002A",
"+  c #0D002D",
"@  c #140725",
"#  c #140B26",
"$  c #11072D",
"%  c #12092C",
"&  c #141327",
"*  c #15142B",
"=  c #161B2D",
"-  c #181A2B",
";  c #0F1333",
":  c #171E30",
">  c #181D31",
",  c #16232E",
"<  c #142A2E",
"1  c #1A2F2D",
"2  c #1E3A2E",
"3  c #0F2C3A",
"4  c #172332",
"5  c #192334",
"6  c #172A36",
"7  c #182B36",
"8  c #142638",
"9  c #1A2638",
"0  c #1A2C3B",
"q  c #0D3437",
"w  c #103135",
"e  c #1C3731",
"r  c #143D35",
"t  c #1E3B31",
"y  c #19323B",
"u  c #16393E",
"i  c #1A3D3C",
"p  c #203E33",
"a  c #1B443A",
"s  c #1E4E3F",
"d  c #224433",
"f  c #264C34",
"g  c #294F30",
"h  c #21453D",
"j  c #234D3A",
"k  c #275035",
"l  c #285236",
"z  c #295539",
"x  c #2A583C",
"c  c #1A3A43",
"v  c #263F55",
"b  c #1D4D40",
"n  c #2B5B40",
"m  c #274057",
"M  c #274459",
"N  c #29455C",
"B  c #2A495E",
"V  c #2A4B61",
"C  c #295161",
"Z  c #246566",
"A  c #246867",
"S  c #216569",
"D  c #266C6B",
"F  c #286C6D",
"G  c #27726E",
"H  c #28756E",
"J  c #27796E",
"K  c #29786E",
"L  c #266E70",
"P  c #277270",
"I  c #287571",
"U  c #2B8C65",
"Y  c #2D9167",
"T  c #26916B",
"R  c #2E946A",
"E  c #2F986A",
"W  c #339465",
"Q  c #379A67",
"!  c #329669",
"~  c #339969",
"^  c #399E69",
"/  c #53A751",
"(  c #52A653",
")  c #52A754",
"_  c #52A857",
"`  c #53AA57",
"'  c #54A954",
"]  c #54A955",
"[  c #54AA54",
"{  c #54AA55",
"}  c #54AB55",
"|  c #55AB55",
" . c #55AA55",
".. c #53AC57",
"X. c #55AC55",
"o. c #56AC54",
"O. c #55AD56",
"+. c #56AD56",
"@. c #56AC56",
"#. c #57AE56",
"$. c #57AF56",
"%. c #56AF57",
"&. c #58AF56",
"*. c #53AE5B",
"=. c #55AD58",
"-. c #57B056",
";. c #58B056",
":. c #5AB457",
">. c #5CB757",
",. c #5CB857",
"<. c #56B15A",
"1. c #55B25B",
"2. c #55B35B",
"3. c #56B25A",
"4. c #57B35A",
"5. c #56B25B",
"6. c #55B35D",
"7. c #57B45C",
"8. c #57B55C",
"9. c #57B35B",
"0. c #59B358",
"q. c #58B35A",
"w. c #59B459",
"e. c #59B559",
"r. c #5AB559",
"t. c #5BB658",
"y. c #5BB758",
"u. c #5AB659",
"i. c #5BB659",
"p. c #5AB759",
"a. c #5BB759",
"s. c #59B55A",
"d. c #59B65A",
"f. c #59B65B",
"g. c #59B75B",
"h. c #5AB75A",
"j. c #5BB95A",
"k. c #5BB95B",
"l. c #5CB859",
"z. c #5DBA59",
"x. c #5CB95A",
"c. c #5CBA5B",
"v. c #5CBB5B",
"b. c #5DBB5B",
"n. c #5DBC5A",
"m. c #5DBC5B",
"M. c #5FBE5B",
"N. c #5AB95C",
"B. c #5BBB5D",
"V. c #5EBE5C",
/* pixels */
"                                                                                                                                ",
"                                                                                                                                ",
"                                                                                                                                ",
"                                                                                                                                ",
"                                                                                                                                ",
"                                                                                                                                ",
"                                                                                                                                ",
"                                                                                                                                ",
"                                                                                                                                ",
"                                                                                                                                ",
"                                                                                                                                ",
"                                                                                                                                ",
"                                                                                                                                ",
"                                                                                                                                ",
"                                                                                                                                ",
"                                                                                                                                ",
"                                                                                                                                ",
"                                                          = 4 + +     4 + + +                                                   ",
"                                                        : : % p d 4 * % p d d 4                                                 ",
"                                      : : =   4 + + +   4 $ f ' ' e O l ' r.' d   4 : : =                                       ",
"                                    = : = = = % p d p * O d ' V.r.f t ' V.V.r.d o - : : : :                                     ",
"                                    : = = , % k ' r.' z < t ' r.r.) f ' V.r.' 2 : 7 * = : :                                     ",
"                                    = : = o t ' V.V.V.;.' d d ;.V.;.x ' V.=.f 8 D D y * * * :                                   ",
"                                  : = * 7 ; d r.V.;.r.r.V.) j ' V.=.W r.V.W 3 Z I I D 6 4 6 * =                                 ",
"                                  : * y D S h ) V.5.~ ! r.r.Q R ~ ~ ~ ' 5.U u D P P D y D D y * :                               ",
"                                  * 7 D I I S n ' ^ T ~ 5.;.5.~ R R U j 2 < 7 D P I D 7 D I D 7 *                               ",
"                                  % 7 H P D H U ~ R ~ 5.r.r.;.5.~ R a X t 2 o y D P D c D I D 7 *                               ",
"                                    7 D P I R ~ R R ~ r.r.r.r.r.~ U < g &.' f o y H P D D A y * :                               ",
"                                : : * y D H R E ! R ~ 5.,.r.r.5.W q t ' V.V.' t r U I D c 7 * =                                 ",
"                              : : : = # = y D R R R R ! 5.r.,.r.W w 1 W ~ 5.-.d U ~ H D D A y * = = =                           ",
"                              : : = * 6 4 # : i H I H J ! Q 5.5.~ U s U E ~ W b Y ~ R H P I D 4 : 4 : :                         ",
"                          : = = = # y D D y . 4 D I R R R R ~ ~ R R R R R R R Y R R R H P I D 7 M m 4 =                         ",
"                        = = 4 4 * y D I I D 7 : H R E R ! R R R H H H H H R ~ E R E R H D A y m V m 4 =                         ",
"                        = 9 m m 7 D I H H I D c D R R R R R R K D D D D D H R R R R R H c 6 * m m 4 =                           ",
"                        4 M V m B D P H H H H D H H R E R E R D V B D H D D K ! R H H H D A y * 9 4 = =                         ",
"                        = 7 M V V C D D D D B V D D H R R R H V m m C D C V H R H L H H P I A 7 M m 9 =                         ",
"                          * 9 M m v 7 M V V m m B C D P P H V m B B m V m m C D c A P H H P I B m V m 4 =                       ",
"                            = 4 9 9 # : m m m V m B D D P D V m B B B m B m C D , 7 H P H P D V m V m 4 =                       ",
"                            = 4 m m 9 = 4 : 4 M B B V C D H D C m B B B m B F D 7 = D I I D y m B m 9 =                         ",
"                            4 m V V m : * : = 7 m B m m V B C D V m B B B B V V M : y D D y @ 4 4 4 =                           ",
"                            4 m m B B 4 : m m m B m 7 M V m m B B B B B B B m m B 4 # 7 7 * = = =                               ",
"                            : : 9 m B m 9 M V V V m = 4 m B B m m B B B m B B V M 4 = * * : : :                                 ",
"                              = = 4 4 4 = 9 m m V m 7 = : 4 M V V V V m 7 M B m 9 = = :                                         ",
"                                          = 4 7 m B M 4 * * 9 m B m m 9 * 4 4 4 = =                                             ",
"                                                  4 9 : : : = 4 4 4                                                             ",
"                                                                                                                                ",
"                                                                                                                                ",
"                                                                                                                                ",
"                                                                                                                                ",
"                                                                                                                                ",
"                                                                                                                                ",
"                                                                                                                                ",
"                                                                                                                                ",
"                                                                                                                                ",
"                                                                                                                                ",
"                                                                                                                                ",
"                                                                                                                                ",
"                                                                                                                                ",
"                                                                                                                                ",
"                                                                                                                                ",
"                                                                                                                                ",
"                                                                                                                                ",
"                                                                                                                                ",
"                                                                                                                                "
};
