/* XPM */
static char *exit[] = {
/* columns rows colors chars-per-pixel */
"64 65 251 2 ",
"   c None",
".  c #000001",
"X  c #020008",
"o  c #02001C",
"O  c #060017",
"+  c #1D0001",
"@  c #2F1316",
"#  c #000024",
"$  c #00012B",
"%  c #0B0725",
"&  c #140427",
"*  c #08172B",
"=  c #141A2D",
"-  c #1A172B",
";  c #000034",
":  c #141832",
">  c #261D29",
",  c #2E0A35",
"<  c #1A232C",
"1  c #1D2835",
"2  c #0A2B36",
"3  c #26242C",
"4  c #242B35",
"5  c #28353C",
"6  c #383538",
"7  c #392F2F",
"8  c #483635",
"9  c #563C3A",
"0  c #492E32",
"q  c #50201D",
"w  c #394134",
"e  c #44472E",
"r  c #545134",
"t  c #74563C",
"y  c #6C5130",
"u  c #5B6330",
"i  c #757734",
"p  c #6C590B",
"a  c #041046",
"s  c #0E3448",
"d  c #283A45",
"f  c #343E42",
"g  c #243855",
"h  c #2B464C",
"j  c #33454A",
"k  c #344A4E",
"l  c #3A4A4D",
"z  c #374347",
"x  c #3B4E51",
"c  c #324B53",
"v  c #3A5559",
"b  c #2B4B59",
"n  c #375C63",
"m  c #3C6267",
"M  c #356670",
"N  c #0F4957",
"B  c #455B5B",
"V  c #495D5D",
"C  c #445656",
"Z  c #4D4C4B",
"A  c #684B47",
"S  c #765847",
"D  c #735248",
"F  c #4B605E",
"G  c #736C54",
"H  c #445E62",
"J  c #4C6463",
"K  c #4E6A6A",
"L  c #476769",
"P  c #516967",
"I  c #526C6B",
"U  c #536666",
"Y  c #54706F",
"T  c #58706E",
"R  c #486D70",
"E  c #4D7273",
"W  c #497679",
"Q  c #547373",
"!  c #557C7C",
"~  c #597C7C",
"^  c #597776",
"/  c #6E736E",
"(  c #653641",
")  c #8A720C",
"_  c #896F39",
"`  c #99693B",
"'  c #8D5D4D",
"]  c #886548",
"[  c #966A4A",
"{  c #9B744B",
"}  c #886555",
"|  c #956B55",
" . c #9B7254",
".. c #967755",
"X. c #8D7551",
"o. c #A4774C",
"O. c #AB7C54",
"+. c #A67755",
"@. c #B17C56",
"#. c #A36F54",
"$. c #947667",
"%. c #A47C62",
"&. c #7E8235",
"*. c #7D8100",
"=. c #5A807F",
"-. c #7A8A7C",
";. c #878938",
":. c #8C9434",
">. c #979D34",
",. c #B5942D",
"<. c #9DA336",
"1. c #A4AA37",
"2. c #B7B13D",
"3. c #A49A04",
"4. c #D1A932",
"5. c #BBC22C",
"6. c #E7EE03",
"7. c #EDF500",
"8. c #ECF31B",
"9. c #C5CC3C",
"0. c #CFD13A",
"q. c #E6ED37",
"w. c #EAF23A",
"e. c #ECF32D",
"r. c #DDDB08",
"t. c #848D4E",
"y. c #AB8655",
"u. c #B38355",
"i. c #BD8B58",
"p. c #B78758",
"a. c #B89455",
"s. c #B08F4A",
"d. c #B5B048",
"f. c #858B76",
"g. c #BB9763",
"h. c #AA8873",
"j. c #B7A96D",
"k. c #95AA64",
"l. c #C89858",
"z. c #C19352",
"x. c #CAA654",
"c. c #D5AB57",
"v. c #D5A658",
"b. c #D5B753",
"n. c #C7B14C",
"m. c #E2B85B",
"M. c #C69B63",
"N. c #CBA568",
"B. c #D1A96A",
"V. c #D7B36D",
"C. c #D9B572",
"Z. c #CBBE7A",
"A. c #E4BA73",
"S. c #D8CA4D",
"D. c #D8D847",
"F. c #D9C953",
"G. c #C9D053",
"H. c #E2DC49",
"J. c #DDE350",
"K. c #E6ED44",
"L. c #E7E947",
"P. c #EBF344",
"I. c #EBF24B",
"U. c #EAF641",
"Y. c #F2F847",
"T. c #EAEF52",
"R. c #D5CD6F",
"E. c #EBF268",
"W. c #F2F97A",
"Q. c #ECEE6F",
"!. c #DDE06C",
"~. c #B2C87F",
"^. c #4F7C82",
"/. c #667F80",
"(. c #3E7285",
"). c #5B8484",
"_. c #5C8B8B",
"`. c #568586",
"'. c #5E9292",
"]. c #54969B",
"[. c #5D9A9D",
"{. c #5A969A",
"}. c #518B91",
"|. c #638C8C",
" X c #668886",
".X c #7A8585",
"XX c #629595",
"oX c #659C9C",
"OX c #6A9D9D",
"+X c #679696",
"@X c #739A9A",
"#X c #659090",
"$X c #6BA19F",
"%X c #77A49D",
"&X c #579BA0",
"*X c #669EA1",
"=X c #66A1A1",
"-X c #6AA3A2",
";X c #6CA6AA",
":X c #72A4A5",
">X c #74ABAB",
",X c #7BACAD",
"<X c #77A7A7",
"1X c #77ADB1",
"2X c #7DB3B4",
"3X c #79B5B8",
"4X c #7ABBCD",
"5X c #8A8E8A",
"6X c #8BA794",
"7X c #B0AC94",
"8X c #85ABA4",
"9X c #96B5A2",
"0X c #81B3B4",
"qX c #84BABB",
"wX c #86BBBA",
"eX c #8CB1A4",
"rX c #A4BCA6",
"tX c #9BC5B8",
"yX c #A8C4AA",
"uX c #B4C9AC",
"iX c #ABCCB9",
"pX c #B7D3BC",
"aX c #B7D0B4",
"sX c #D6D08D",
"dX c #ECF292",
"fX c #CAD7AE",
"gX c #C9D9B4",
"hX c #DCCCB6",
"jX c #F2F5A5",
"kX c #F3F8B5",
"lX c #F0ECB5",
"zX c #E2DEAC",
"xX c #83BEC3",
"cX c #89BFC1",
"vX c #85C1C5",
"bX c #8CC3C4",
"nX c #8EC7C8",
"mX c #8AC6CA",
"MX c #92CACB",
"NX c #95C8C6",
"BX c #97D1D3",
"VX c #A5CEC3",
"CX c #B3D5C3",
"ZX c #CED6C9",
"AX c #F6F9C7",
"SX c #F8F8D8",
"DX c #EAE2CB",
"FX c #FAFCE6",
"GX c #FFFFFE",
"HX c #FEFDF3",
"JX c #C7B1AD",
/* pixels */
"                                      % = . c L m m m f V ! oXoX`.~ ~ `.Q z z j z 4 9 9 .                                       ",
"                                . v 2X+X1 W XX-X;X<X-XXX`.`.-XoX=X=X=X-XoXXX~ J #X^.y.!.sX<X5 .                                 ",
"                            o 4 `.wXBXL L 3X2XnXnX2X-XoXoXQ XX+XoXoXoXoXoX=X=.`.-X{.{ dXZXmX+X`.4 o                             ",
"                        % 5 `.XXMXnXnXXX'.wX2X-X-XoXoXoXoXoXoXoXoXoXoXoX+X:XoXoXoX;Xb p _.xXMXwX'.`.4 %                         ",
"                      = 1 J oX-XwXnX2XoX-X+XoXoXoXoXoX-X2X+X`.+XoX+X2X2XwX,XoXoX<XMX,X{.oX2XnXwX-XoXJ 1 =                       ",
"              = % o = = V I XX-XnXnX2X+Xf.' 5XnXcXwXnX0X|.! |.nXwXcXnXnXnX<X:XwXnX#X+X:X'.2XnXnX-XXXI V = < o % =               ",
"            % 1 c L % * J I XXoX0XNXxX#XJXsXd.cXnXnXnX<X$X`.Q 0XnXnXnXnXnXnXMXMXwX= 6 `.-XwXNX0XoXXXI J * % L c 1 %             ",
"          % v XXoXXX4 4 I P ~ *X8XfXZXyXkXFX0. X[.-X+XoXoXoX`.~ `.,XnXnXMXnX1XnXE 3 @XnXnXVXfX8X[.~ J K 4 4 XXoXoXv %           ",
"      d 1 . `.-XoX! 1 x J J I #X[.8X9X<XR.sX` k =.`.oXoXoXoX-X=XoXoX<X:X:XQ +X2Xh V -X1X;XeX8X[.XXI I I x 4 ^ oX-X`.. 1 d       ",
"    c oX`.4 ! -X.XG f j H v C I oX[.].[.W C d +XnX,X1XoXoXoXoXoXoXoXoXoX`.~ 0XMX+XL I .X.X&X[.oXK V 4 j l d I XX-X! 4 `.oXc     ",
"  . E -X*XQ E #Xh.a.} j |.^.Q oXoXoX+X|.J I I I <X1X-XoX:X<XxXnX0X0X:X'.+XnXnXnX+XG $.a.s.f.[.oX+X! v ~ C C `.=XoXI Q oX-XE .   ",
"1 . R -XoXI m k.SXkX9.L '.2XMXqX-X2X! J Q J J J #XwX<XwXwX,X@X@Xv k P Q :XnXwX<X+XA n.e.E.DX5X;XwXnXnXwXJ I XXoXoXJ I oX-XL . 1 ",
"j j k oX-XP s k.dXDX3.x `.2XnXnXnXcX! 5 C x x I Q wXnXnXnXwXqX+Xf.w 5 +XnX<XoX+XM t 4.lXGXHX7XvXnXnXMX,XV Q -X-XXXz L -XoXk j j ",
"J K f `.`.l Z b t.) , H C @XMXbXxXnXMX,XR . C P XXoX:X<XwXnXNXpXgX7Xv oXoXoXoX-XM _ v.sXkXE.t.2XnXnX,XP J v E Q C z l `.`.f K J ",
"I I V l C l g d g ; 5 I ! `.0XgXCXwXwXBX+X. J J `.-XoXoX+X*X$X%X%X%XI `.oXoXoXoXoXf { x.r.0.%XnXnX2X`.`.P d > 6 z x l C l V I I ",
"P Y l > 4 Z ) X.Z 3 V I XX-X{.8X9X%XoX^ 5 . J I XX-XoXoXoXoXoX[.oX{.C K -XoXoXoXoXI . @ } T ;X,X-XoX-XXXI J = l C 6 > 3 > l Y P ",
"Y z v +X`.5XlXJ.u g Y K XX+X+X[.].oXXX^.`.|.Q K `.XX-X+XoXoXoXoXoX+Xx V oXoXoXoXK 3 ~ XXR c +XoXoXoXoXXXJ I C 5 > V |.`.+Xv l I ",
"4 H wXMXwXdXHXlX) s / U `.=X-X-XXX-XnXMXMXMXwX XF V Q XX=XoXoXoXoX`.x C `.oX+X-X,X,XnXnXvX1X-X'.-X-X-X'.I I I k R <XMXnXMX1Xh 5 ",
"O 2XnXnX`.3.e.z., y %.$.} ~ R R < :XnXnXnXnXnXbX,X@X@XF ! XXoX=X`.P x l I +XnXbXnXnXnXiXpXCX<X= R E E 5 l j E oX<XwXnXnXnXnX`.- ",
"J  XnXnXwX*X6Xx A sXQ.dX2.| @ k P Q -XwXnXvXvXxXmXmXnX*X4 H ~ Q Q Y j % J ,X0XwXNXpXaXaX9X%X#XJ x . 1 c R XX-X2XnXnXnXnXnXnX|.J ",
"P I 2XnXnXMXmXyXJ.GXSXE.J.| Z Q P Q oXoX<XiXpXpXgXpXgXCX^ . C V V f 5 5 j V C R 9XyX%X{.[.[.XXJ Y v Q  X^ 3XMXnXnXnXnXnXnX2XQ P ",
"J XXoX-X3XtXgXsX7.jXSXDXC.t s I P I XXoXoX%X%X9XaXuXfX9X= K `. X~ `.wXwXwXxX:XJ L }.oXoX+X-XXXP K / | | ' / 0XnXnXnX<XoX-XoX`.J ",
"J `.oXoX{.%X8Xt.w.e.r.4.c._ s Y I I Q `.oX[.[.[.].].].R 5  XnXMXMXMXnXmXNXVXbXXXC  X-XoXoX+XXXP v i D.D.!.hXG =X<X<X$XoXoXoX|.J ",
"P I XX-XoXoX{.[.~.>.a.x._ > l J J `.oXoXoXoXoX+X+X+XXXI 5 5  X2X2XcXnXVXiXyX6Xv V oXoX=X5X[ / K $ 9.Y.7.AXHXG.oXoXoXoXoX-X-XY J ",
"K E `.XX-X-X+X+X].a D U b j l K Y XXoXoXoXoXoXoXoXoXXXI 5 C Q ! XX-X-XeX%X].oXx H -X-XM ) dXZXZ S b.q.lXFXdX6.-.*X+X-X-XXX`.K K ",
"2X2X^ 1 L `.oXoX-X! b Q I 5 k F L -X-XoXoXoXoXoXoXoXoXL g P ! oXoXoXoX[.oX-X-X1 k `.! O ,.jXkXp 0 l.v.V.I.e.K.r }.+X`.L 4 ^ 2X2X",
"nXMXnX,XL L <XwX`.K C J 1 % X v Q ! `.-XoXoXoXoX`.! / y.,.G =.$X=X=X+XoXoX'.W 5 ~ 0XwXoXq S.G.^ N p a.s.H.G.u T 2X,XL L ,XnXnXnX",
"nXnXnXnXnXnXnXnX0XwX~ x x < R 0XMX<X|.=.XXoXoXoX-X`.' S.AX7XP =X`.`.wX2X2X1X'.<XnXnXMXMX*X1XmXnXqXM # C $.~ ;XnXnXnXnXnXnXnXnXnX",
"nXnXnXnXnXnXnXnXnXMXwXI x 5 ! <XnXMXnX+X+X:XoXXX|.R q s.lXj.a ^ d J 0XnXnXNXCXCXiXwX0XwX<X-XwXNX:X! 5 x m wXMXnXnXnXnXnXnXnXvXvX",
"nXnXnXnXvXvXxXxXxXtXwXI x d J J ,XnXnXnXmXxX3X1X;X<X;X0X7XG K P = V V |.<X<X9X9X9XoXoXoXoXXX;X,XJ J 5 l I wXcXxXvXvXvXvXvXbXNXNX",
"2X2XwXbXpXpXiXpXiXT ! I J % J I J :XxXbXpXpXCXCXCXCXNX3X3X1XXXJ = V I '.oX[.].].].oXoXoXoX-XXXJ I J % J I ! Q iXCXiXpXpXCXiXyXyX",
"oXoX3XtXfXfXfX9X6XP J I V = J I J `.-X-XuXfXfXfXfXfXuX'.+X$XXXP x V I '.oXoX+X+X+XoXoXoXoXoX`.J I J = V I J P 6X9XfXfXfXfXuX[.].",
"oXoXoXoXoXoXoX[.W J I I J = P I J ~ `.'.[.oXoXoXoXoX+X+XoX-X`.J h v T P ^ oXoXoXoXoXoXoXoX`.`.~ I J = J I I J W [.oXoXoXoX$X.Xf.",
"oXoXoXoXoXoXoX-X`.J K I V * * h `.oXXXoX*X[.oXoXoXoX[.=XoX}.s [ [ Z m x `.=X-X=X=XoXoX-X-X-X-XE n L * V I I J `.-XoXoXoXoXM 3.Q.",
"oXoXoXoX+XoXoXoXoXI I V = > ] ] C L `.oXoX5X+XoXoX[.5X/ P ` [ M.i.u...@ G f.m K E +XXXL m R v + [ X.& = V I I oXoX*X+X$X'.+ R.HX",
"<X<X-XoXoXoXoXoXoXJ 4 - # ] z.l.p.u.M.g.d O.p.g.g.g.l.o.y A.C.C.C.N.A.y y.v.u.o.o.p.p.+ y.z.p.a.i.N.{ # - 4 J oXoX@X$.| } @ p.Q.",
"nXnXnX2X-X-X=X=X`.V V l * 9 u.V.N.N.C.g.& a.M.M.C.C.M...r V.V.B.N.B.B.r ..C.C.M.g.N.g.4 N.C.C.B.M.B.S $ l V V `.5Xo.R.sXF.G o t.",
"nXnXnXnX2XXX`.`.J I I I V # ] .. . .] D * } O.} O.g.| r $ ] #. .| ] S 7 0 y.g.|  .] S - t [  . .{ t # V I I I v ' n.w.dXGXlXk.4X",
"+X<X<X-XoX`.l J I K P I J > u.#.u.u.p.O.- O.i.+.u.u.i.] 8 p.u.u. .p.i.9 ] p.O.p.u.p.O.* | p.u.O. .u.> J I J I v 0 a.lXFXFXE.!.'.",
"K [. X.X-XXXf V Y I I J j 3 O.u.@.#. .#.3 o.M.p.O.O.p.] 9 i.u.u.#.O.u.9 ] @.#.@. .u.O.= } @.@.u.O.O.3 j J I Y n 8 x.B.F.e.e.9.s ",
"* U j.,. XoXf . V C < % o - o.p.y.x.y.y.& [ @.F.Y.n.S.<.& p.p.p.L.Y.S.; t L.K.I.s.#.o.* d.a.a.p.i.o.- o % < C Z X ) ,.4.3.D.G ; ",
". h.HXQ.y b l +X:X:X+XC x # 8 D _ <.i u $ 4 S <.1.i i 6 < 0 ( 9 >.1.i * 1 :.<.<.u 0 8 $ u ;.;.S S 8 # x C +X:XXX+XXX@XrX@X;XR 4 ",
"a d.W.R.p W xXmXMXNX|.I K 4 $ # # $ $ $ * = # - ;.;.i 5.D.;.;.;.&.&.*.r.5.i &.;.w $ * = $ # $ # # $ 4 K I |.VXCXMXmXmXmXMXMX0X5 ",
"j F <.p ^.MXVXpXaX-.v I I k 7 S A 7 D D D 7 3 0.Y.P.Y.P.7.7.7.7.8.T.W.W.W.T.Y.Y.0.< 7 D D D 7 A S 7 k I I v -.fXaXgXpXnXwXwX#Xz ",
"I ! (.^.<XwXuXrX+X[.`.J I h 0 X.} 9 } } } A e K.P.K.K.q.jXkXjXkXdXq.AXAXAXE.q.I.K.e D D r } 9 } X.0 h I J `.[.oX%XuXuX<XXX`.Q V ",
"x oX-X-XoX[.{.{.oX$XoXI I k % S | A } } ..S 6 D.P.q.E.SXGXGXGXGXFXdXE.6.6.w.K.P.D.3 A ..9 } } } } 0 h I I oX-XoX[.].].oXoX=X[.s ",
"1 `.oXoXoX+X+X+X+XoXoX`.J V $ D p. .u.@.S.s.a :.Y.K.P.T.FXGXGXGXFXAXjX6.I.P.K.P.:.; d.S.D u. .p.D $ V J `.-XoXoXoX+X+XoX+X5X-.D ",
"% d oXoXoXoXoXoXoXoX-X`.J Y 2 D u. .u.@.S.d.8 :.Y.e.Q.HXGXGXGXGXGXFXHXFXq.P.K.Y.:.a L.S.| u. .u.D 2 Y U  X=XoXoXoXoXoX=X$.y.8.Z.",
"o h =X-XoXoXoXoX+X*XoXQ I V $ D u. . . .a.n.<.;.Y.q.E.kXkXkXkXkXkXkXkXjXP.P.K.Y.;.i K.F.@.#. .u.D $ Z  .o..X=X+XoXoX-X`.| 0.W.HX",
"4 * `.`.oXoXoXoX'.=.K I C & * 8 u.+.u. .@.L.>.;.Y.K.w.6.6.6.6.AXHXFXjXdXP.K.P.0.$ 1.P.B.p.+.O.O.8 $ _ J.SX7XR XXoXXX$XM y c.R.W.",
"K ,X<X,XqXqX0XwX,XY V x 5 5 o 7 O.i.[ ..M.K.<.i P.K.P.I.L.T.w.dXkXjXkXjXw.K.Y.9.$ 1.I.C.O.g.l.O.8 o 3.dXSXJ.L ,XwX2XwX#X. ` n.2.",
":XMXbXnXnXnXnXnXnXnXnX2XoXoXm & | i.S y.M.K.<.$ 0.P.K.P.P.P.P.8.6.6.6.6.K.K.Y.9.$ 1.I.C.S g.l.| - m c ` d.tXnXnXnXnXnXnX#X^ @XxX",
"mXnXnXnXnXnXnXnXnXnXnXnX3X-X`.X S i.[ B.N.D.D.= 9.Y.P.K.L.L.L.L.I.I.I.I.P.K.Y.9.; d.T.N.S i.i.S X `.oX=X1XxXnXnXnXnXnXnXMXMXnXvX",
"pXbXxXvXvXnXnXnXnXnXnXnXxX`.3 # t i. .B.C.x.P.e 9.Y.K.H.S.S.K.H.K.K.S.S.S.K.Y.0.; D.b.M.| u.p.t # 3 `.nXMXnXnXnXnXMXnXvXxXxXbXpX",
"fXgXVXVXVXtX2X0X0X0X,X+X|.J J k > o.+.B.M.x.P.6 9.L.S.S.S.S.S.x.b.b.l.b.L.K.P.2.e w.n.@.#.p.o.3 k V H |.+X,X0X0X0X2XtXVXVXVXgXfX",
" XyXrXrXyX9X`.`.`.`.`.`.`.I I I $ [ p.N.#.n.K.w 9.Y.K.K.L.K.H.l.x.l.x.K.U.P.K.e r D.p.@.u.p.{ $ I I I `.`.`.`.`.`.`.9XyXrXrXyX X",
"! ].].].].[.-X=X-X-X-X-X-X`.P I 2 { p.p.u.+.a., 9.H.x.S.S.b.c.x.x.b.S.H.H.L.K.e r n.#.u.u.u.] 1 I V ! -X-X-XoX=X*X-X[.].].].].! ",
"`.-X+X+X+X+XoXoXoXoXXXn W W j T v [ @.u.u. .@.$ 9.L.S.P.P.S.l.x.x.S.b.l.l.F.K.r & O. .u.+.u.7 v J o c `.L XX-XoXoXoX+X+X+X+X-X`.",
"v oX-X-X-X-X-X-X-X-Xn . % < o V k 3  .u.u.| u.9 9.Y.P.P.L.c.c.c.c.v.x.l.S.L.L.u ( p. .u. .u.0 h 4   % < . c `.-X-X-X-X-X-X-XoXc ",
"  v m n '.-X`.      5           # 3  .| u.} O.[ 5.Y.Y.Y.F.c.c.c.c.c.c.m.m.m.a.* o.u.| u. .u.8 # -   1 =     .   `.oX-X`.v L c . ",
"                                = 7 A y O.Z p.{ w 9.  I.              c.v.c._ $ D 8 8 ]  .o.3                                   ",
"                                < = # 3 A 8 O.{ $ $                             $     < S 7                                     ",
"                              =         $                                                                                       ",
"                                                                                                                                ",
"                                                                                                                                "
};
