/* XPM */
static char *player_right5[] = {
/* columns rows colors chars-per-pixel */
"64 64 177 2 ",
"   c None",
".  c #000000",
"X  c #00000D",
"o  c #000013",
"O  c #00001B",
"+  c #221700",
"@  c #000023",
"#  c #000B26",
"$  c #00032A",
"%  c #000B29",
"&  c #001426",
"*  c #02132B",
"=  c #04192E",
"-  c #0B192D",
";  c #0E1327",
":  c #161C2E",
">  c #1B1E2F",
",  c #0C1A36",
"<  c #171E32",
"1  c #1A1F31",
"2  c #201938",
"3  c #1D202F",
"4  c #1C2132",
"5  c #222533",
"6  c #282630",
"7  c #252A33",
"8  c #2D2C35",
"9  c #272B38",
"0  c #2A2D3C",
"q  c #382935",
"w  c #322C3B",
"e  c #2E313D",
"r  c #32363E",
"t  c #383238",
"y  c #333033",
"u  c #383A43",
"i  c #493F41",
"p  c #433742",
"a  c #3E404A",
"s  c #4B4040",
"d  c #424249",
"f  c #554747",
"g  c #574947",
"h  c #574948",
"j  c #5A4A49",
"k  c #585858",
"l  c #614E4E",
"z  c #6D5953",
"x  c #685553",
"c  c #725D55",
"v  c #7D655C",
"b  c #766553",
"n  c #565B68",
"m  c #6B6D70",
"M  c #76777A",
"N  c #80685D",
"B  c #896D67",
"V  c #826662",
"C  c #8F7B62",
"Z  c #8B7165",
"A  c #94786B",
"S  c #9B7F6E",
"D  c #917469",
"F  c #8F8664",
"G  c #9E806F",
"H  c #908C7F",
"J  c #999172",
"K  c #A2846D",
"L  c #A58A6B",
"P  c #AC926D",
"I  c #B0956F",
"U  c #A88A75",
"Y  c #A79773",
"T  c #B6977A",
"R  c #BA9A7B",
"E  c #B5987A",
"W  c #BBA76D",
"Q  c #ACA173",
"!  c #BAA27F",
"~  c #CAA777",
"^  c #C1A47B",
"/  c #C7AA7C",
"(  c #DFB876",
")  c #E1BF68",
"_  c #E2BE7F",
"`  c #E5C179",
"'  c #898A8C",
"]  c #808183",
"[  c #97948B",
"{  c #8B8F94",
"}  c #92959B",
"|  c #9A9998",
" . c #9D9EA1",
".. c #A2A1A0",
"X. c #ABACAD",
"o. c #B6B7B9",
"O. c #B8B8B9",
"+. c #CDAD83",
"@. c #D0AF84",
"#. c #C5B98D",
"$. c #D4B385",
"%. c #DCBB84",
"&. c #DBBA8A",
"*. c #C9BD90",
"=. c #E1BC82",
"-. c #E2BF8A",
";. c #DFC087",
":. c #D5C38D",
">. c #DDCD9F",
",. c #D5C796",
"<. c #E3C284",
"1. c #E5C38D",
"2. c #E6CB8C",
"3. c #E1C792",
"4. c #E8C791",
"5. c #E7CC93",
"6. c #ECCA92",
"7. c #E8CF9C",
"8. c #E7CC9D",
"9. c #F0CD95",
"0. c #EAD39B",
"q. c #EDDE9F",
"w. c #EBD793",
"e. c #CFCCBB",
"r. c #D8D0B6",
"t. c #E8CEA2",
"y. c #EAD2A4",
"u. c #EDDCA2",
"i. c #EDDEAA",
"p. c #EBD4B3",
"a. c #ECD5B9",
"s. c #EEDABE",
"d. c #EDDAB2",
"f. c #F0DFBC",
"g. c #F4DBB1",
"h. c #EEE0A4",
"j. c #EFE1AC",
"k. c #F2E3AC",
"l. c #F4E2A3",
"z. c #F1E4B3",
"x. c #F1E6BB",
"c. c #F3E8BE",
"v. c #FDEDB1",
"b. c #C0C0C1",
"n. c #CCCCCD",
"m. c gray85",
"M. c #E9D7C2",
"N. c #EFDDC6",
"B. c #EFDECB",
"V. c #ECE5CC",
"C. c #F4E7C6",
"Z. c #F3E9C4",
"A. c #F3E5CC",
"S. c #F4EBCC",
"D. c #F9EBC3",
"F. c #FFF4C7",
"G. c #FAF0CC",
"H. c #F5EED2",
"J. c #F5EBDB",
"K. c #F2E4D2",
"L. c #F7F0D4",
"P. c #FBF4D5",
"I. c #F7F1DA",
"U. c #F9F3DD",
"Y. c #FFF8DF",
"T. c #DCDEE2",
"R. c #EDEDED",
"E. c #E1E2E4",
"W. c #F7EEE4",
"Q. c #FAF5E4",
"!. c #FAF5EC",
"~. c #FCF9EC",
"^. c #EEF0F1",
"/. c #F6F5F3",
"(. c #FAF6F1",
"). c #FCFAF3",
"_. c #FFFFFE",
/* pixels */
"                                                                                                                                ",
"                                                                                                                                ",
"                                                                                                                                ",
"                                                                                                                                ",
"                                                                                                                                ",
"                                                                                                                                ",
"                                                                                                                                ",
"                                                                                                                                ",
"                                                                                                                                ",
"                                                                                                                                ",
"                                                                                                                                ",
"                                                                                                                                ",
"                                                                                                                                ",
"                                                                                                                                ",
"                                                                                                                                ",
"                                                                                                                                ",
"                                                                                                                                ",
"                                                                                                                                ",
"                                                                                                                                ",
"                                                                                                                                ",
"                                                                                                                                ",
"                                                                        8 ; , 0                                                 ",
"                                              . .       . u . o d 9 . . . 7 + . . >       :                                     ",
"                                            @ F [ . . n O._.X.d . . |  .H >.V...} 5       4                                     ",
"                                        7 $ Y F._.T.*.V._._._.R.e.E._._.U.g._._._.r O   : :                                     ",
"                                        u . W P._._.Y.~._._._.!.Q._._._.p.! ^._.S.:.q = > :                                     ",
"                                      e . { M.2.~._._._.)._.W.( !._._.!.` . o._.f.<.b @ 5 5                                     ",
"                                      . ' _._.a.5._._.J.w.u.y.K.I.).U.c.U.k ; k.#.o - 4 = .                                     ",
"                                      . n._._._.a._._.Q.t.1.)._.).S.w.!._.' . Y C . 8 . M _.m                                   ",
"                                      . b._._._.N.)._._.(.=._._._.S.q.)._./.Q ,.J . r . { /.%                                   ",
"                                      o I D._.z.j._._._.(._ !._.~.c.H._._.Q.k.v.F . m.R. .n.a                                   ",
"                                      O P l.c.!.c.I._._.L.u.i.S.j.q.z.).S.0.u.G.| . ] M k . 5                                   ",
"                                      . I k.h.)._.c.U._._._.S.Q._.U.i.5._ 7.!._.} . X . O e <                                   ",
"                                      o L 6.i.i.S.d.8._._._._._._._.J._ u.S._._.r.. 0 7 4 : 1                                   ",
"                                      3 $ &.4.u.5.5.0.)._.W.p._.).J.s.u.k._._.A.1.j % 3 : : :                                   ",
"                                      > $ / -.i.z.h.k.H._.p.y._.I.) 2.h.u.~.(.$.$.N @ 5 1 4 :                                   ",
"                                        = 2 @.6.i.U._.).H.Z.u.u.c.Q.I.U.Z.2.=.E A v @                                           ",
"                                          @ P +.K B.!._._._.Z.j._._._._.y.-.6.&.V t -                                           ",
"                                            @ x K =._ c.P.P.s.1.A.H.L.C.~ &.$.L : =                                             ",
"                                            5 % z T 1.3.:.:.&.1.<.<.0.;.D S S l @                                               ",
"                                              3 @ z T K V R 9.+.U &.6.R A G c % 1 :                                             ",
"                                            : 4 % s v S A L ^ C B ^ $.U Z z $ > : 4                                             ",
"                                            : < 4 % % h i O o @ g p w f w @ 4 : < :                                             ",
"                                              : :     @ @ 8 y 6 @ @ & @ = 5     :                                               ",
"                                                                                                                                ",
"                                                                                                                                ",
"                                                                                                                                ",
"                                                                                                                                ",
"                                                                                                                                ",
"                                                                                                                                ",
"                                                                                                                                ",
"                                                                                                                                ",
"                                                                                                                                ",
"                                                                                                                                ",
"                                                                                                                                ",
"                                                                                                                                ",
"                                                                                                                                ",
"                                                                                                                                ",
"                                                                                                                                ",
"                                                                                                                                ",
"                                                                                                                                ",
"                                                                                                                                ",
"                                                                                                                                ",
"                                                                                                                                "
};
