/* XPM */
static char *player_left5[] = {
/* columns rows colors chars-per-pixel */
"64 64 177 2 ",
"   c None",
".  c #000000",
"X  c #00000D",
"o  c #000013",
"O  c #00001B",
"+  c #221700",
"@  c #000023",
"#  c #000B26",
"$  c #00032A",
"%  c #000B29",
"&  c #001426",
"*  c #02132B",
"=  c #04192E",
"-  c #0B192D",
";  c #0E1327",
":  c #161C2E",
">  c #1B1E2F",
",  c #0C1A36",
"<  c #171E32",
"1  c #1A1F31",
"2  c #201938",
"3  c #1D202F",
"4  c #1C2132",
"5  c #222533",
"6  c #282630",
"7  c #252A33",
"8  c #2D2C35",
"9  c #272B38",
"0  c #2A2D3C",
"q  c #382935",
"w  c #322C3B",
"e  c #2E313D",
"r  c #32363E",
"t  c #383238",
"y  c #333033",
"u  c #383A43",
"i  c #493F41",
"p  c #433742",
"a  c #3E404A",
"s  c #4B4040",
"d  c #424249",
"f  c #554747",
"g  c #574947",
"h  c #574948",
"j  c #5A4A49",
"k  c #585858",
"l  c #614E4E",
"z  c #6D5953",
"x  c #685553",
"c  c #725D55",
"v  c #7D655C",
"b  c #766553",
"n  c #565B68",
"m  c #6B6D70",
"M  c #76777A",
"N  c #80685D",
"B  c #896D67",
"V  c #826662",
"C  c #8F7B62",
"Z  c #8B7165",
"A  c #94786B",
"S  c #9B7F6E",
"D  c #917469",
"F  c #8F8664",
"G  c #9E806F",
"H  c #908C7F",
"J  c #999172",
"K  c #A2846D",
"L  c #A58A6B",
"P  c #AC926D",
"I  c #B0956F",
"U  c #A88A75",
"Y  c #A79773",
"T  c #B6977A",
"R  c #BA9A7B",
"E  c #B5987A",
"W  c #BBA76D",
"Q  c #ACA173",
"!  c #BAA27F",
"~  c #CAA777",
"^  c #C1A47B",
"/  c #C7AA7C",
"(  c #DFB876",
")  c #E1BF68",
"_  c #E2BE7F",
"`  c #E5C179",
"'  c #898A8C",
"]  c #808183",
"[  c #97948B",
"{  c #8B8F94",
"}  c #92959B",
"|  c #9A9998",
" . c #9D9EA1",
".. c #A2A1A0",
"X. c #ABACAD",
"o. c #B6B7B9",
"O. c #B8B8B9",
"+. c #CDAD83",
"@. c #D0AF84",
"#. c #C5B98D",
"$. c #D4B385",
"%. c #DCBB84",
"&. c #DBBA8A",
"*. c #C9BD90",
"=. c #E1BC82",
"-. c #E2BF8A",
";. c #DFC087",
":. c #D5C38D",
">. c #DDCD9F",
",. c #D5C796",
"<. c #E3C284",
"1. c #E5C38D",
"2. c #E6CB8C",
"3. c #E1C792",
"4. c #E8C791",
"5. c #E7CC93",
"6. c #ECCA92",
"7. c #E8CF9C",
"8. c #E7CC9D",
"9. c #F0CD95",
"0. c #EAD39B",
"q. c #EDDE9F",
"w. c #EBD793",
"e. c #CFCCBB",
"r. c #D8D0B6",
"t. c #E8CEA2",
"y. c #EAD2A4",
"u. c #EDDCA2",
"i. c #EDDEAA",
"p. c #EBD4B3",
"a. c #ECD5B9",
"s. c #EEDABE",
"d. c #EDDAB2",
"f. c #F0DFBC",
"g. c #F4DBB1",
"h. c #EEE0A4",
"j. c #EFE1AC",
"k. c #F2E3AC",
"l. c #F4E2A3",
"z. c #F1E4B3",
"x. c #F1E6BB",
"c. c #F3E8BE",
"v. c #FDEDB1",
"b. c #C0C0C1",
"n. c #CCCCCD",
"m. c gray85",
"M. c #E9D7C2",
"N. c #EFDDC6",
"B. c #EFDECB",
"V. c #ECE5CC",
"C. c #F4E7C6",
"Z. c #F3E9C4",
"A. c #F3E5CC",
"S. c #F4EBCC",
"D. c #F9EBC3",
"F. c #FFF4C7",
"G. c #FAF0CC",
"H. c #F5EED2",
"J. c #F5EBDB",
"K. c #F2E4D2",
"L. c #F7F0D4",
"P. c #FBF4D5",
"I. c #F7F1DA",
"U. c #F9F3DD",
"Y. c #FFF8DF",
"T. c #DCDEE2",
"R. c #EDEDED",
"E. c #E1E2E4",
"W. c #F7EEE4",
"Q. c #FAF5E4",
"!. c #FAF5EC",
"~. c #FCF9EC",
"^. c #EEF0F1",
"/. c #F6F5F3",
"(. c #FAF6F1",
"). c #FCFAF3",
"_. c #FFFFFE",
/* pixels */
"                                                                                                                                ",
"                                                                                                                                ",
"                                                                                                                                ",
"                                                                                                                                ",
"                                                                                                                                ",
"                                                                                                                                ",
"                                                                                                                                ",
"                                                                                                                                ",
"                                                                                                                                ",
"                                                                                                                                ",
"                                                                                                                                ",
"                                                                                                                                ",
"                                                                                                                                ",
"                                                                                                                                ",
"                                                                                                                                ",
"                                                                                                                                ",
"                                                                                                                                ",
"                                                                                                                                ",
"                                                                                                                                ",
"                                                                                                                                ",
"                                                                                                                                ",
"                                                0 , ; 8                                                                         ",
"                                    :       : . . + 7 . . . 9 d o . u .       . .                                               ",
"                                    4       5 } ..V.>.H  .| . . d X._.O.n . . [ F @                                             ",
"                                    : :   O r _._._.g.U._._.E.e.R._._._.V.*.T._.F.Y $ 7                                         ",
"                                    : : = q :.S._.^.! p._._._.Q.!._._._.~.Y._._.P.W . u                                         ",
"                                    5 5 @ b <.f._.o.. ` !._._.!.( W._.)._._._.~.2.M.{ . e                                       ",
"                                    . * 4 - o #.k.; k U.x.U.).I.K.y.u.w.J._._.5.a._._.' .                                       ",
"                                  m _.M . 8 . C Y . ' _.!.w.S.)._.).1.t.Q._._.a._._._.n..                                       ",
"                                  # /.{ . r . J ,.Q /._.).q.S._._._.=.(._._.).N._._._.b..                                       ",
"                                  a n. .R.m.. F v.k.Q._._.H.x.~._.!._ (._._._.j.z._.D.I o                                       ",
"                                  5 . k M ] . | G.u.0.S.).z.q.j.S.i.u.L._._.I.x.!.x.l.P O                                       ",
"                                  < e O . X . } _.!.7._ 5.i.U._.Q.S._._._.U.c._.).h.k.I .                                       ",
"                                  1 : 4 7 0 . r._._.S.u._ J._._._._._._._.8.d.S.i.i.6.L o                                       ",
"                                  : : : 3 % j 1.A._._.k.u.s.J.)._.p.W._.).0.5.5.u.4.%.$ 3                                       ",
"                                  : 4 1 5 @ N $.$.(.~.u.h.2.) I._.y.p._.H.k.h.z.i.-./ $ :                                       ",
"                                          @ v A E =.2.Z.U.I.Q.x.u.u.Z.H.)._.U.i.6.@.2 =                                         ",
"                                          - t V &.6.-.y._._._._.j.Z._._._.!.B.K +.P @                                           ",
"                                            * : L $.&.~ C.L.H.A.1.s.P.P.c._ =.K x @                                             ",
"                                              @ l S S D ;.0.<.<.1.%.:.:.3.1.T z # 5                                             ",
"                                            : 1 % c G A R 6.&.U +.9.R V K T z @ 3                                               ",
"                                            4 : : $ z Z U $.^ B C ^ L A S v s % 4 :                                             ",
"                                            : < : 4 @ w f w p g @ o O i h # % 4 < :                                             ",
"                                              :     5 * @ & # @ 6 y 8 @ @     : :                                               ",
"                                                                                                                                ",
"                                                                                                                                ",
"                                                                                                                                ",
"                                                                                                                                ",
"                                                                                                                                ",
"                                                                                                                                ",
"                                                                                                                                ",
"                                                                                                                                ",
"                                                                                                                                ",
"                                                                                                                                ",
"                                                                                                                                ",
"                                                                                                                                ",
"                                                                                                                                ",
"                                                                                                                                ",
"                                                                                                                                ",
"                                                                                                                                ",
"                                                                                                                                ",
"                                                                                                                                ",
"                                                                                                                                ",
"                                                                                                                                "
};
