/* XPM */
static char *player_left6[] = {
/* columns rows colors chars-per-pixel */
"64 64 170 2 ",
"   c None",
".  c #000000",
"X  c #00000B",
"o  c #1C0000",
"O  c #1F1300",
"+  c #000015",
"@  c #00001E",
"#  c #000123",
"$  c #020B24",
"%  c #00002B",
"&  c #00092A",
"*  c #06162D",
"=  c #161C2D",
"-  c #001F38",
";  c #171E31",
":  c #1B1F30",
">  c #271B29",
",  c #1D2232",
"<  c #23232F",
"1  c #332E25",
"2  c #3C342F",
"3  c #222432",
"4  c #242836",
"5  c #2C2C34",
"6  c #292D3A",
"7  c #322D37",
"8  c #34343C",
"9  c #464315",
"0  c #7C6F3C",
"q  c #323540",
"w  c #353842",
"e  c #3C3C45",
"r  c #483D4A",
"t  c #483C48",
"y  c #39404C",
"u  c #424447",
"i  c #474448",
"p  c #51434C",
"a  c #57494A",
"s  c #414955",
"d  c #5E5151",
"f  c #53545B",
"g  c #635747",
"h  c #615151",
"j  c #6E5A52",
"k  c #6B5755",
"l  c #7D6B5B",
"z  c #796854",
"x  c #5E5F66",
"c  c #5B5E68",
"v  c #67686D",
"b  c #68696E",
"n  c #626367",
"m  c #7D7A68",
"M  c #6C6D73",
"N  c #717277",
"B  c #856E5B",
"V  c #967D5D",
"C  c #8B6F64",
"Z  c #8E7367",
"A  c #8C7860",
"S  c #967B67",
"D  c #948065",
"F  c #998161",
"G  c #A08264",
"H  c #BA9B6E",
"J  c #A29877",
"K  c #B09074",
"L  c #B09971",
"P  c #B89A79",
"I  c #BC9976",
"U  c #BDA173",
"Y  c #C5A06E",
"T  c #DEB36D",
"R  c #CEAB7B",
"E  c #D0AD77",
"W  c #D8B57C",
"Q  c #E3BC7C",
"!  c #E2C276",
"~  c #7D7E81",
"^  c #848589",
"/  c #BBA281",
"(  c #AFAB99",
")  c #BFB79B",
"_  c #AAABAC",
"`  c #B3B4B5",
"'  c #B8B7B7",
"]  c #BBBBBA",
"[  c #CAAC80",
"{  c #CBB885",
"}  c #D6B589",
"|  c #D8B686",
" . c #E2BD80",
".. c #D9C883",
"X. c #DAC691",
"o. c #E5C486",
"O. c #E5C58D",
"+. c #E6CC8B",
"@. c #EFCB8A",
"#. c #EBC589",
"$. c #E8D289",
"%. c #E7C490",
"&. c #E5CB94",
"*. c #E8CD93",
"=. c #E6C79F",
"-. c #E7D096",
";. c #EBD59D",
":. c #EDDD9F",
">. c #E9D295",
",. c #DFCAA1",
"<. c #D7CDA9",
"1. c #D8D0AF",
"2. c #DACCBF",
"3. c #DBD3B6",
"4. c #E6C9A1",
"5. c #ECCEA0",
"6. c #EAD5A1",
"7. c #EDDCA1",
"8. c #EEDEAA",
"9. c #F0DCA3",
"0. c #F0DFAB",
"q. c #EEDBBA",
"w. c #EAD2B3",
"e. c #F3DCB5",
"r. c #EFE1AD",
"t. c #F1E4AD",
"y. c #F7E9AF",
"u. c #EFE2B5",
"i. c #F1E4B5",
"p. c #F8E6B4",
"a. c #F6E9B6",
"s. c #F1E5BD",
"d. c #BFBFC0",
"f. c #C1C2C5",
"g. c #CBCBCC",
"h. c #D5D5D6",
"j. c #ECD8C2",
"k. c #E5DFC8",
"l. c #E0D3C4",
"z. c #F1DFC2",
"x. c #F0DFCC",
"c. c #EEE1CD",
"v. c #F1E5C4",
"b. c #F4EAC5",
"n. c #FAEEC0",
"m. c #F3E4CB",
"M. c #F5ECCD",
"N. c #F8F0CE",
"B. c #EAE6D9",
"V. c #F5EED4",
"C. c #F5EBDA",
"Z. c #F4E7DA",
"A. c #F7F0D6",
"S. c #F9F0D6",
"D. c #F7F1DA",
"F. c #F8F1DD",
"G. c #EDEAE5",
"H. c #EAEAEB",
"J. c #F4EDE3",
"K. c #FAF5E4",
"L. c #FBF8E6",
"P. c #F0F0EF",
"I. c #FAF7EA",
"U. c #FCF9ED",
"Y. c #F5F1E2",
"T. c #EEEFF4",
"R. c #F3F3F4",
"E. c #FAF6F3",
"W. c #FDFBF4",
"Q. c #FFFFFE",
/* pixels */
"                                                                                                                                ",
"                                                                                                                                ",
"                                                                                                                                ",
"                                                                                                                                ",
"                                                                                                                                ",
"                                                                                                                                ",
"                                                                                                                                ",
"                                                                                                                                ",
"                                                                                                                                ",
"                                                                                                                                ",
"                                                                                                                                ",
"                                                                                                                                ",
"                                                                                                                                ",
"                                                                                                                                ",
"                                                                                                                                ",
"                                                                                                                                ",
"                                                                                                                                ",
"                                                                                                                                ",
"                                                                                                                                ",
"                                                                                                                                ",
"                                                                                                                                ",
"                                                                                                                                ",
"                                                                                                                                ",
"                                                                                                                                ",
"                                                                                                                                ",
"                                                                                                                                ",
"                                                  6 $ . x N . . . f N M M . , 6                                                 ",
"                                            . . . . s ' Q.Q.f.] ( R.Q.Q.Q.` . . . . . %                                         ",
"                                        8 . c H.R.l.,.Q.Q.Q.Q.Q.p.W.Q.Q.Q.W...k.T.B.<.u %                                       ",
"                                = = = 6 % 9 J.Q.Q.K.o.q.C.Q.Q.W.o.w.m.A.D.W.K.Q.Q.Q.Q.X.o @ e                                   ",
"                              = , ; 3 % g &.S.Q.Q.M.u.s.s.i.s.M.D.W.6.o.$.v.Q.Q.W.V.-.5.G.y . q                                 ",
"                              = 3 6 < # z | ;.M.M.K.Q.Q.Q.7.M.Q.Q.Q.J.T j.W.Q.Q.K.o.=.E.Q.P.` .                                 ",
"                                @ . , 8 - # J 9.y.U.Q.Q.Q.b.i.K.F.I.v.! v.Q.Q.Q.Q.q.U.Q.Q.Q.H.. w                               ",
"                                ^ h.. . . @ > U m 0 1.N.q.;.b.K.I.i.b.W.I.U.M.Q.V.t.r.K.Q.K.<.. 8                               ",
"                              . ~ R.^ d.] u u 3.O # g *.T Z.Q.Q.Q.Q.Q.Q.Q.Q.Q.t.M.Q.Q.D.7.t.{ + 6                               ",
"                              + v b _ g.R.n % Q.G.. 2 0.>.m.W.I.W.J.x.W.I.U.U.&.C.E.E.A.-.9.R @ 6                               ",
"                              3 . . + . . & 1 Y.Q.f.) t.i.D.V.V.7.*.+.8.D.V.A.7.+.&.;.6.&.;.V #                                 ",
"                              ; , 4 , 4 6 + F | 4.e.n.K.Q.Q.Q.Q.U.:.L.Q.Q.Q.Q.V.U.a.9.o.%.L . 6                                 ",
"                              = = = = = = j Z } o. .&.&.z.V.M.m.q.o.c.V.M.M.j.m.2./ I P B g % <                                 ",
"                                    = ; : 7 j [ } } K S E @.o.E R %.W H G W #.Q Y C k % # % <                                   ",
"                                      = = * # % p t a a d A l r r l D A p h D l p i # , 3 3                                     ",
"                                          = 3 < # $ # # # X + $ $ + . X # # . + # # 3 =                                         ",
"                                                                                                                                ",
"                                                                                                                                ",
"                                                                                                                                ",
"                                                                                                                                ",
"                                                                                                                                ",
"                                                                                                                                ",
"                                                                                                                                ",
"                                                                                                                                ",
"                                                                                                                                ",
"                                                                                                                                ",
"                                                                                                                                ",
"                                                                                                                                ",
"                                                                                                                                ",
"                                                                                                                                ",
"                                                                                                                                ",
"                                                                                                                                ",
"                                                                                                                                ",
"                                                                                                                                ",
"                                                                                                                                ",
"                                                                                                                                ",
"                                                                                                                                ",
"                                                                                                                                "
};
