/* XPM */
static char *player_left3[] = {
/* columns rows colors chars-per-pixel */
"64 64 164 2 ",
"   c None",
".  c #000000",
"X  c #00000C",
"o  c #000017",
"O  c #00001C",
"+  c #0A091D",
"@  c #272112",
"#  c #000024",
"$  c #000B27",
"%  c #00012B",
"&  c #000D2B",
"*  c #0E1126",
"=  c #02142C",
"-  c #0E172D",
";  c #0C1A2C",
":  c #151B2D",
">  c #1A1E2F",
",  c #071733",
"<  c #171D30",
"1  c #181E32",
"2  c #1A1634",
"3  c #1C2132",
"4  c #23242F",
"5  c #2D2A2F",
"6  c #222432",
"7  c #252936",
"8  c #2C2C35",
"9  c #2A2634",
"0  c #2E313B",
"q  c #34333A",
"w  c #473E3C",
"e  c #444232",
"r  c #6E572B",
"t  c #313540",
"y  c #353842",
"u  c #393C43",
"i  c #3B3E48",
"p  c #4B4B4B",
"a  c #5C4F46",
"s  c #5C4D48",
"d  c #404355",
"f  c #60504C",
"g  c #665948",
"h  c #614D50",
"j  c #725C56",
"k  c #6F6C59",
"l  c #7E6952",
"z  c #7B685A",
"x  c #787462",
"c  c #76746F",
"v  c #6A6B71",
"b  c #75767B",
"n  c #77787B",
"m  c #7C7C7C",
"M  c #846B61",
"N  c #8B7264",
"B  c #96786D",
"V  c #997C6B",
"C  c #92746A",
"Z  c #98845F",
"A  c #938268",
"S  c #AA9D6A",
"D  c #A28670",
"F  c #AB8E74",
"G  c #B09471",
"H  c #B59F74",
"J  c #BA9C7C",
"K  c #B9A478",
"L  c #C4A77A",
"P  c #CAA87D",
"I  c #CDA974",
"U  c #D9B47F",
"Y  c #E2BC7E",
"T  c #E5C17D",
"R  c #87878A",
"E  c #818285",
"W  c #8D8E91",
"Q  c #949597",
"!  c #969699",
"~  c #A09C83",
"^  c #A4A190",
"/  c #A9AAAC",
"(  c #B4B0AD",
")  c #B4B4B6",
"_  c #C7A780",
"`  c #CBB688",
"'  c #D1B086",
"]  c #D9B78A",
"[  c #DEBD8C",
"{  c #D7B988",
"}  c #CABF98",
"|  c #E1BC84",
" . c #E2BE8A",
".. c #C1BAA2",
"X. c #DEC286",
"o. c #DFCA83",
"O. c #CEC396",
"+. c #DEC496",
"@. c #D1C69A",
"#. c #DFD198",
"$. c #E5C484",
"%. c #E4C48C",
"&. c #EAC588",
"*. c #E8CB8E",
"=. c #E3CB8E",
"-. c #E3C491",
";. c #E7CE92",
":. c #EBCA91",
">. c #E6C89B",
",. c #ECCD9B",
"<. c #F1CB93",
"1. c #EAD393",
"2. c #EBDA92",
"3. c #E9D498",
"4. c #ECDB9B",
"5. c #F1D699",
"6. c #C6C2B4",
"7. c #D8CEB0",
"8. c #EAD3A2",
"9. c #EDDCA4",
"0. c #ECD8AD",
"q. c #EBD4B4",
"w. c #EDDAB3",
"e. c #EED9BD",
"r. c #EFE2AB",
"t. c #F7E2A7",
"y. c #F0E1A8",
"u. c #F1E4B6",
"i. c #F2E7BD",
"p. c #BEBEC0",
"a. c #C3C3C4",
"s. c #C8C7C0",
"d. c #CBC8C5",
"f. c #D0D1D3",
"g. c #D7D9DE",
"h. c #D9D9DA",
"j. c #D3D4D9",
"k. c #E7DBC8",
"l. c #E6E1CB",
"z. c #F1E4C2",
"x. c #F4EAC3",
"c. c #F1E4CB",
"v. c #F4EACB",
"b. c #F9F0CE",
"n. c #FCF1C5",
"m. c #F5ECD3",
"M. c #F6EBDC",
"N. c #F7F0DA",
"B. c #F9F4DE",
"V. c #E7E7E8",
"C. c #E9E8E8",
"Z. c #F6EDE2",
"A. c #F7F3E3",
"S. c #F9F5E3",
"D. c #FAF5E8",
"F. c #FDFAEC",
"G. c #FCF8E2",
"H. c #F4F4F4",
"J. c #FBF7F0",
"K. c #FDFBF5",
"L. c white",
"P. c #FFFFFF",
"I. c #FEFEFD",
"U. c #FDFDFA",
/* pixels */
"                                                                                                                                ",
"                                                                                                                                ",
"                                                                                                                                ",
"                                                                                                                                ",
"                                                                                                                                ",
"                                                                                                                                ",
"                                                                                                                                ",
"                                                                                                                                ",
"                                                                                                                                ",
"                                                                                                                                ",
"                                                                                                                                ",
"                                                                                                                                ",
"                                                                                                                                ",
"                                                                                                                                ",
"                                                                                                                                ",
"                                                                                                                                ",
"                                                                                                                                ",
"                                                                                                                                ",
"                                                                                                                                ",
"                                                        7 3 7     t . .                                                         ",
"                                                  i u 8 . o . . o . W p.. 4   i                                                 ",
"                                              7 - . . . ! U.h.m x h.U.U.a.. . . . 3                                             ",
"                                              . q f.d.K U.U.U.U.F.U.U.U.U.} 6.j.... #                                           ",
"                                            + d V.U.U.&.Z.U.U.U.q.c.U.U.U.D.U.U.U.@.u                                           ",
"                                    : : :   . ~ U.U.U.%.T D.U.U.M.| z.v.D.U.U.U.U.t.r $ q                                       ",
"                                  : 3 < 6 # z =.v.U.A.m.m.u.i.N.D.U.0.$.:.U.U.D.w.,.( . *                                       ",
"                                  : 3 7 8 X L <.9.n.F.U.U.D.2.F.U.U.M.-.K.U.U.m.%.K.U.C.v .                                     ",
"                                      . 7 # l ` 8.S d.U.U.U.u.x.D.U.w.8.U.U.U.Z.Z.U.U.U.b .                                     ",
"                                    R E o : # . ` p . s.U.m.4.r.x.i.9.x.D.K.U.N.9.K.U.U.c .                                     ",
"                                    W H.. y 5 . O.y.. Z 5.%.m.U.U.D.K.U.U.D.m.i.D.m.B.7.@ ,                                     ",
"                                  . Q a.) H./ . h.K.^ H ,.%.U.U.U.U.U.U.U.K.1.U.U.F.o.* $                                       ",
"                                  3 - . b b n . g.U.U.b.r.9.q.z.U.J.>.J.U.Z.| c.v.x.{ X 0                                       ",
"                                  : 3 0 . . . e l.K.U.D.2.i.v.z.r.u.4.x.m.v.1.$.;.9.-.k o                                       ",
"                                  : 1 : 6 8 $ A *.+.e.u.B.U.U.U.B.4.N.U.U.U.x.G.y.-.:.K .                                       ",
"                                    : 1 3 $ f V C P Y %.u.D.B.D.c.-.M.D.B.M.M.k.{ :.J l $                                       ",
"                                            = M D :.:. .U 1.3.$.$. .X.#.3.$.Y I V F s # 6                                       ",
"                                            6 # s G _ F V ] :.' J [ [ B F %.{ J j o &                                           ",
"                                              6 # # 2 9 z N V N h w g a M a j j $ 6 4                                           ",
"                                              : 6 6 : ; & # # # ; $ # $ = $ # = 1 >                                             ",
"                                                  : 3 > 6               6 6 6 >                                                 ",
"                                                                                                                                ",
"                                                                                                                                ",
"                                                                                                                                ",
"                                                                                                                                ",
"                                                                                                                                ",
"                                                                                                                                ",
"                                                                                                                                ",
"                                                                                                                                ",
"                                                                                                                                ",
"                                                                                                                                ",
"                                                                                                                                ",
"                                                                                                                                ",
"                                                                                                                                ",
"                                                                                                                                ",
"                                                                                                                                ",
"                                                                                                                                ",
"                                                                                                                                ",
"                                                                                                                                ",
"                                                                                                                                ",
"                                                                                                                                ",
"                                                                                                                                ",
"                                                                                                                                ",
"                                                                                                                                ",
"                                                                                                                                "
};
