/* XPM */
static char *player_right3[] = {
/* columns rows colors chars-per-pixel */
"64 64 164 2 ",
"   c None",
".  c #000000",
"X  c #00000C",
"o  c #000017",
"O  c #00001C",
"+  c #0A091D",
"@  c #272112",
"#  c #000024",
"$  c #000B27",
"%  c #00012B",
"&  c #000D2B",
"*  c #0E1126",
"=  c #02142C",
"-  c #0E172D",
";  c #0C1A2C",
":  c #151B2D",
">  c #1A1E2F",
",  c #071733",
"<  c #171D30",
"1  c #181E32",
"2  c #1A1634",
"3  c #1C2132",
"4  c #23242F",
"5  c #2D2A2F",
"6  c #222432",
"7  c #252936",
"8  c #2C2C35",
"9  c #2A2634",
"0  c #2E313B",
"q  c #34333A",
"w  c #473E3C",
"e  c #444232",
"r  c #6E572B",
"t  c #313540",
"y  c #353842",
"u  c #393C43",
"i  c #3B3E48",
"p  c #4B4B4B",
"a  c #5C4F46",
"s  c #5C4D48",
"d  c #404355",
"f  c #60504C",
"g  c #665948",
"h  c #614D50",
"j  c #725C56",
"k  c #6F6C59",
"l  c #7E6952",
"z  c #7B685A",
"x  c #787462",
"c  c #76746F",
"v  c #6A6B71",
"b  c #75767B",
"n  c #77787B",
"m  c #7C7C7C",
"M  c #846B61",
"N  c #8B7264",
"B  c #96786D",
"V  c #997C6B",
"C  c #92746A",
"Z  c #98845F",
"A  c #938268",
"S  c #AA9D6A",
"D  c #A28670",
"F  c #AB8E74",
"G  c #B09471",
"H  c #B59F74",
"J  c #BA9C7C",
"K  c #B9A478",
"L  c #C4A77A",
"P  c #CAA87D",
"I  c #CDA974",
"U  c #D9B47F",
"Y  c #E2BC7E",
"T  c #E5C17D",
"R  c #87878A",
"E  c #818285",
"W  c #8D8E91",
"Q  c #949597",
"!  c #969699",
"~  c #A09C83",
"^  c #A4A190",
"/  c #A9AAAC",
"(  c #B4B0AD",
")  c #B4B4B6",
"_  c #C7A780",
"`  c #CBB688",
"'  c #D1B086",
"]  c #D9B78A",
"[  c #DEBD8C",
"{  c #D7B988",
"}  c #CABF98",
"|  c #E1BC84",
" . c #E2BE8A",
".. c #C1BAA2",
"X. c #DEC286",
"o. c #DFCA83",
"O. c #CEC396",
"+. c #DEC496",
"@. c #D1C69A",
"#. c #DFD198",
"$. c #E5C484",
"%. c #E4C48C",
"&. c #EAC588",
"*. c #E8CB8E",
"=. c #E3CB8E",
"-. c #E3C491",
";. c #E7CE92",
":. c #EBCA91",
">. c #E6C89B",
",. c #ECCD9B",
"<. c #F1CB93",
"1. c #EAD393",
"2. c #EBDA92",
"3. c #E9D498",
"4. c #ECDB9B",
"5. c #F1D699",
"6. c #C6C2B4",
"7. c #D8CEB0",
"8. c #EAD3A2",
"9. c #EDDCA4",
"0. c #ECD8AD",
"q. c #EBD4B4",
"w. c #EDDAB3",
"e. c #EED9BD",
"r. c #EFE2AB",
"t. c #F7E2A7",
"y. c #F0E1A8",
"u. c #F1E4B6",
"i. c #F2E7BD",
"p. c #BEBEC0",
"a. c #C3C3C4",
"s. c #C8C7C0",
"d. c #CBC8C5",
"f. c #D0D1D3",
"g. c #D7D9DE",
"h. c #D9D9DA",
"j. c #D3D4D9",
"k. c #E7DBC8",
"l. c #E6E1CB",
"z. c #F1E4C2",
"x. c #F4EAC3",
"c. c #F1E4CB",
"v. c #F4EACB",
"b. c #F9F0CE",
"n. c #FCF1C5",
"m. c #F5ECD3",
"M. c #F6EBDC",
"N. c #F7F0DA",
"B. c #F9F4DE",
"V. c #E7E7E8",
"C. c #E9E8E8",
"Z. c #F6EDE2",
"A. c #F7F3E3",
"S. c #F9F5E3",
"D. c #FAF5E8",
"F. c #FDFAEC",
"G. c #FCF8E2",
"H. c #F4F4F4",
"J. c #FBF7F0",
"K. c #FDFBF5",
"L. c white",
"P. c #FFFFFF",
"I. c #FEFEFD",
"U. c #FDFDFA",
/* pixels */
"                                                                                                                                ",
"                                                                                                                                ",
"                                                                                                                                ",
"                                                                                                                                ",
"                                                                                                                                ",
"                                                                                                                                ",
"                                                                                                                                ",
"                                                                                                                                ",
"                                                                                                                                ",
"                                                                                                                                ",
"                                                                                                                                ",
"                                                                                                                                ",
"                                                                                                                                ",
"                                                                                                                                ",
"                                                                                                                                ",
"                                                                                                                                ",
"                                                                                                                                ",
"                                                                                                                                ",
"                                                                                                                                ",
"                                                        . . t     7 3 7                                                         ",
"                                                i   4 . p.W . o . . O . 8 u i                                                   ",
"                                            3 . . . . a.P.P.h.x m h.P.! . . . - 7                                               ",
"                                          # . ..j.6.} P.P.P.P.F.P.P.P.P.K d.f.q .                                               ",
"                                          u @.P.P.P.G.P.P.P.c.q.P.P.P.Z.&.P.P.V.d +                                             ",
"                                      q % r t.P.P.P.P.G.v.z.| M.P.P.G.T %.J.P.P.~ .   : : :                                     ",
"                                      * . ( ,.w.G.P.J.;.$.0.P.G.N.i.u.m.v.A.P.v.=.z # 6 < 3 :                                   ",
"                                    . v C.P.J.%.m.P.P.J.-.M.P.P.F.2.G.P.P.F.n.9.<.L X 8 7 3 :                                   ",
"                                    . b P.P.P.Z.Z.P.P.P.8.w.P.D.x.u.P.P.P.d.S 8.` l # 7 .                                       ",
"                                    . c P.P.J.9.N.P.J.G.x.9.u.x.r.4.m.P.s.. p ` . # : O E R                                     ",
"                                    , @ 7.B.m.B.i.m.G.P.P.J.G.P.P.m.%.5.Z . y.O.. 5 y . H.W                                     ",
"                                      % * o.F.P.P.1.J.P.P.P.P.P.P.P.%.3.H ^ J.h.. / H.) a.Q .                                   ",
"                                      0 X { x.v.c.| Z.P.J.>.J.P.z.q.9.r.b.P.P.g.. n b b . - 3                                   ",
"                                      O k -.9.;.$.1.v.m.x.4.u.r.z.v.i.2.G.P.J.l.e . . . 0 3 :                                   ",
"                                      . K ;.-.y.G.x.P.P.P.N.4.B.P.P.P.B.u.e.+.*.A % 8 6 : < :                                   ",
"                                      % l J ;.{ k.M.N.B.G.M.-.c.G.B.G.u.%.Y P C V f % 3 < :                                     ",
"                                      6 # s F V I T $.4.#.X. .$.$.3.1.U  .;.;.D M =                                             ",
"                                          & O j J { %.F B [ [ J ' ;.] V F _ G s # 6                                             ",
"                                          4 6 $ j j a M a g w h N V N z 9 2 # # 6                                               ",
"                                            > < = # % = % # % ; # # # & ; : 6 6 :                                               ",
"                                                > 6 6 6               6 > 3 :                                                   ",
"                                                                                                                                ",
"                                                                                                                                ",
"                                                                                                                                ",
"                                                                                                                                ",
"                                                                                                                                ",
"                                                                                                                                ",
"                                                                                                                                ",
"                                                                                                                                ",
"                                                                                                                                ",
"                                                                                                                                ",
"                                                                                                                                ",
"                                                                                                                                ",
"                                                                                                                                ",
"                                                                                                                                ",
"                                                                                                                                ",
"                                                                                                                                ",
"                                                                                                                                ",
"                                                                                                                                ",
"                                                                                                                                ",
"                                                                                                                                ",
"                                                                                                                                ",
"                                                                                                                                ",
"                                                                                                                                ",
"                                                                                                                                "
};
