/* XPM */
static char *player_left1[] = {
/* columns rows colors chars-per-pixel */
"64 64 160 2 ",
"   c None",
".  c #000000",
"X  c #00000C",
"o  c #1C0A00",
"O  c #000012",
"+  c #00001C",
"@  c #201711",
"#  c #000124",
"$  c #000924",
"%  c #00022B",
"&  c #000A2A",
"*  c #03142C",
"=  c #0A1329",
"-  c #151B2E",
";  c #1A1E2E",
":  c #031531",
">  c #141C31",
",  c #191F32",
"<  c #211F34",
"1  c #1D202F",
"2  c #1C2233",
"3  c #142039",
"4  c #232532",
"5  c #282630",
"6  c #262A36",
"7  c #2B2A33",
"8  c #252C39",
"9  c #2A2D3A",
"0  c #2F323C",
"q  c #30303A",
"w  c #3F353C",
"e  c #443C3B",
"r  c #333642",
"t  c #303948",
"y  c #493D43",
"u  c #444544",
"i  c #41434D",
"p  c #504147",
"a  c #504E4A",
"s  c #5A4B4A",
"d  c #515258",
"f  c #6A5743",
"g  c #6F5847",
"h  c #6C5754",
"j  c #6C5B51",
"k  c #70604E",
"l  c #756056",
"z  c #555861",
"x  c #5B5C63",
"c  c #626368",
"v  c #766C60",
"b  c #696D73",
"n  c #846D5E",
"m  c #846662",
"M  c #856C62",
"N  c #897160",
"B  c #9B7F66",
"V  c #9A7E6F",
"C  c #88815B",
"Z  c #9E816E",
"A  c #979071",
"S  c #A2886C",
"D  c #A88E6D",
"F  c #AC9E6F",
"G  c #B69764",
"H  c #AE8F76",
"J  c #A28573",
"K  c #B79976",
"L  c #B99B7A",
"P  c #ADA37C",
"I  c #BCA079",
"U  c #CBA45D",
"Y  c #C5A67E",
"T  c #C5AA7F",
"R  c #C8AB7C",
"E  c #DFB876",
"W  c #8A8B8D",
"Q  c #B6B099",
"!  c #BBB291",
"~  c #9D9EA0",
"^  c #A3A3A4",
"/  c #A7A7A9",
"(  c #ABABAD",
")  c #B8B8BA",
"_  c #C4AF86",
"`  c #C8A983",
"'  c #D0AF80",
"]  c #C5B187",
"[  c #C3B88F",
"{  c #D2B284",
"}  c #D9B687",
"|  c #DEBB84",
" . c #D0BB8C",
".. c #DEBB89",
"X. c #C8BD93",
"o. c #E1BE8A",
"O. c #E1BC82",
"+. c #DAC38D",
"@. c #E6C186",
"#. c #E6CC85",
"$. c #E5C38C",
"%. c #E8C78A",
"&. c #E9C98E",
"*. c #EBD98F",
"=. c #E9C690",
"-. c #E6CD93",
";. c #EACC92",
":. c #E7CB9B",
">. c #E8CD9E",
",. c #EDD397",
"<. c #EAD49B",
"1. c #ECDB9C",
"2. c #CFCCBB",
"3. c #E5CAA2",
"4. c #E8CEA1",
"5. c #E9CFAC",
"6. c #EAD2A4",
"7. c #E6D9A6",
"8. c #EDDBA4",
"9. c #EDDCAA",
"0. c #F2DDA6",
"q. c #F3DEAE",
"w. c #ECD8B3",
"e. c #EFE0A3",
"r. c #EFE1AC",
"t. c #EFE1B4",
"y. c #EEE3BF",
"u. c #F1E5B5",
"i. c #F5E8B5",
"p. c #F2E7BD",
"a. c #F4EABC",
"s. c #C3C3C5",
"d. c #C7C7C8",
"f. c #CDCDCE",
"g. c #D4D2CD",
"h. c #D6D6D7",
"j. c #EDDFC1",
"k. c #F3E9C2",
"l. c #F4ECCC",
"z. c #F2E6C3",
"x. c #F3E4D3",
"c. c #F6EDD4",
"v. c #F6EBDA",
"b. c #F9F1D3",
"n. c #FFF8D7",
"m. c #F7F1DB",
"M. c #F8F3DE",
"N. c #E3E4E3",
"B. c #EDECEC",
"V. c #F7EEE4",
"C. c #FAF4E4",
"Z. c #FAF6EB",
"A. c #FCF8ED",
"S. c #FAF7F3",
"D. c #FCFAF4",
"F. c white",
"G. c #FEFEFE",
"H. c #FDFDFD",
"J. c #FDFDFA",
"K. c #F4F5F5",
/* pixels */
"                                                                                                                                ",
"                                                                                                                                ",
"                                                                                                                                ",
"                                                                                                                                ",
"                                                                                                                                ",
"                                                                                                                                ",
"                                                                                                                                ",
"                                                                                                                                ",
"                                                                                                                                ",
"                                                                                                                                ",
"                                                                                                                                ",
"                                                                                                                                ",
"                                                                                                                                ",
"                                                                                                                                ",
"                                                                                                                                ",
"                                                                                                                                ",
"                                                                                                                                ",
"                                                                                                                                ",
"                                                                                                                                ",
"                                                                                                                                ",
"                                                                                                                                ",
"                                                                                                                                ",
"                                                      9 . . 8 u O . r . 9                                                       ",
"                                              9 = . : . W ~ . . i ( F.^ . 3 X +                                                 ",
"                                            9 . 9 x @ ^ F.F.N.2.B.F.F.F.^ o z a . >                                             ",
"                                            + i B.F.3.c.F.F.F.C.Z.F.F.F.b.l.F.D.! . 0                                           ",
"                                          6 . N.F.F.w.o.D.F.F.Z.E V.F.F.F.F.F.F.n.F %                                           ",
"                                      -   + C b.F.F.p.#.9.C.D.m.x.6.1.8.D.F.F.F.0.G . +                                         ",
"                                    - 6 # k ;.-.Z.C.C.F.C.*.l.D.F.D.@.>.C.F.C.<.:.S.^ d +                                       ",
"                                    - 6 & e ' 0.1.l.F.F.F.k.k.F.F.F.O.D.F.F.F.5.F.F.F.s..                                       ",
"                                      . ; + j T :.7.g.K.F.l.8.r.Z.k.#.M.F.F.F.j.F.F.F.s..                                       ",
"                                      c 0 9 8 . A [ . b j.<.k.Z.l.r.C.Z.Z.D.C.e.l.F.F.Q .                                       ",
"                                      h.s.. . # 9 e.P . U v.F.F.F.F.F.F.F.p.p.F.D.i.X.. 2                                       ",
"                                    . f.) d.N.i u A.y.u +.x.F.F.F.x.D.F.F.:.v.F.D.0.f # 9                                       ",
"                                    - i r ^ / d t F.F.8.r.<.;.l.C.6.w.C.M.4.@.<.9.0.g #                                         ",
"                                    - # = . . . v S.A.u.l.D.D.l.1.e.c.A.Z.r.8.9.8.;. .%                                         ",
"                                    > - ; 6 q + D @.-.k.F.F.F.F.8.c.F.F.F.C.D.u.&.} { 1 -                                       ",
"                                      , , - 9 M Y @.@.%.9.p.t.6.o.3.p.p.t.5.3.K ..K y 2 ;                                       ",
"                                          ; - h { =.o.K | ,.@.| @.@._ ] ;.@.| Z h w # ;                                         ",
"                                            > # e N n m H } ` V S R B m K I J l # = 5                                           ",
"                                            - 2 & # + e s y p s # + # s < # s & 2 1                                             ",
"                                              - ; 6 6 = # $ # # 6 9 9 # > 6 # ; -                                               ",
"                                                  - -                     ; 1                                                   ",
"                                                                                                                                ",
"                                                                                                                                ",
"                                                                                                                                ",
"                                                                                                                                ",
"                                                                                                                                ",
"                                                                                                                                ",
"                                                                                                                                ",
"                                                                                                                                ",
"                                                                                                                                ",
"                                                                                                                                ",
"                                                                                                                                ",
"                                                                                                                                ",
"                                                                                                                                ",
"                                                                                                                                ",
"                                                                                                                                ",
"                                                                                                                                ",
"                                                                                                                                ",
"                                                                                                                                ",
"                                                                                                                                ",
"                                                                                                                                ",
"                                                                                                                                "
};
