/* XPM */
static char *player_left4[] = {
/* columns rows colors chars-per-pixel */
"64 64 160 2 ",
"   c None",
".  c #000000",
"X  c #00000B",
"o  c #000013",
"O  c #00001C",
"+  c #211B02",
"@  c #000023",
"#  c #000824",
"$  c #000129",
"%  c #00082B",
"&  c #01132C",
"*  c #091229",
"=  c #0F1A2D",
"-  c #191825",
";  c #161C2E",
":  c #1B1E2F",
">  c #081733",
",  c #041C30",
"<  c #161E30",
"1  c #181F32",
"2  c #1C202F",
"3  c #152137",
"4  c #1D2131",
"5  c #3C382D",
"6  c #222433",
"7  c #2A2633",
"8  c #252835",
"9  c #2B2B34",
"0  c #2A2D3A",
"q  c #312D35",
"w  c #2F313C",
"e  c #353035",
"r  c #393239",
"t  c #454138",
"y  c #635E35",
"u  c #393D45",
"i  c #4A3D44",
"p  c #3F4146",
"a  c #4C4044",
"s  c #42444D",
"d  c #524544",
"f  c #5A4B47",
"g  c #57484B",
"h  c #58484A",
"j  c #59534B",
"k  c #454850",
"l  c #59595E",
"z  c #61514C",
"x  c #67614E",
"c  c #786952",
"v  c #7F685C",
"b  c #7D735A",
"n  c #555761",
"m  c #5D5E66",
"M  c #66666A",
"N  c #67696D",
"B  c #6E6D69",
"V  c #7A7563",
"C  c #717277",
"Z  c #7A7B7E",
"A  c #806547",
"S  c #856B49",
"D  c #896D5E",
"F  c #8A6E66",
"G  c #8C7264",
"H  c #8F7864",
"J  c #92756A",
"K  c #9A7D6E",
"L  c #8B8263",
"P  c #9F8967",
"I  c #9F846C",
"U  c #AD926C",
"Y  c #A59C7A",
"T  c #B09671",
"R  c #B49877",
"E  c #BA9E76",
"W  c #BD9D7B",
"Q  c #B0A37D",
"!  c #BFA279",
"~  c #B7AC7A",
"^  c #C8A676",
"/  c #C4A479",
"(  c #D2B07F",
")  c #DEB97D",
"_  c #7C7D81",
"`  c #87888B",
"'  c #8B8C8F",
"]  c #838488",
"[  c #9D9680",
"{  c #BBAC83",
"}  c #BFB484",
"|  c #A0A0A2",
" . c #ABACAD",
".. c #B6B6B8",
"X. c #D5B487",
"o. c #D7B688",
"O. c #D0BA8B",
"+. c #DAB889",
"@. c #D7BC98",
"#. c #E1BD84",
"$. c #E1BE8A",
"%. c #DFC78B",
"&. c #DFC694",
"*. c #E5C484",
"=. c #ECC787",
"-. c #E3C28B",
";. c #E9C68F",
":. c #E6CA8C",
">. c #EBCA8E",
",. c #E7CD94",
"<. c #ECCD94",
"1. c #E8CD9F",
"2. c #E4C392",
"3. c #EFD397",
"4. c #EAD49A",
"5. c #EDDC9D",
"6. c #ECDB93",
"7. c #C6C0AB",
"8. c #DACDA3",
"9. c #D1CEBE",
"0. c #EACFAD",
"q. c #E9D4A0",
"w. c #EDDCA4",
"e. c #ECD7AE",
"r. c #ECDAAC",
"t. c #EDDDB2",
"y. c #EFD9BF",
"u. c #EBD4B9",
"i. c #EFE1A9",
"p. c #F1E3AD",
"a. c #F0E4B5",
"s. c #F2E6BB",
"d. c #F5EABD",
"f. c #CBCBCC",
"g. c #D1D2D6",
"h. c #D8D7D6",
"j. c #EFDEC8",
"k. c #F3E7CE",
"l. c #F5EBCD",
"z. c #E2E0DA",
"x. c #F1E1D0",
"c. c #F6EED3",
"v. c #F5EBDA",
"b. c #FBEEDC",
"n. c #FFFCD0",
"m. c #F7F1DB",
"M. c #FAF3DB",
"N. c #ECECEE",
"B. c #E2E2E2",
"V. c #F7EEE3",
"C. c #F8EFE9",
"Z. c #F7F3E5",
"A. c #F9F4E2",
"S. c #FDF9E7",
"D. c #FAF6EA",
"F. c #FCF9ED",
"G. c #FBF6F0",
"H. c #FDFCF4",
"J. c #FEFEFE",
"K. c gray95",
/* pixels */
"                                                                                                                                ",
"                                                                                                                                ",
"                                                                                                                                ",
"                                                                                                                                ",
"                                                                                                                                ",
"                                                                                                                                ",
"                                                                                                                                ",
"                                                                                                                                ",
"                                                                                                                                ",
"                                                                                                                                ",
"                                                                                                                                ",
"                                                                                                                                ",
"                                                                                                                                ",
"                                                                                                                                ",
"                                                                                                                                ",
"                                                                                                                                ",
"                                                                                                                                ",
"                                                                                                                                ",
"                                                                                                                                ",
"                                                                                                                                ",
"                                                                                                                                ",
"                                                                                                                                ",
"                                                  6 4 . . u p . . 0 .                                                           ",
"                                            0 O O @ O | ` . . M f.H.N . > X %                                                   ",
"                                          8 . k l + f.H.H.h.9.H.H.H.H.B 5 n t o 8                                               ",
"                                          . ` H.H.-.H.H.H.H.b.H.H.H.H.l.Z.H.A.L o                                               ",
"                                        . m H.H.H.-.0.H.H.H.x.-.H.H.H.H.H.H.H.d.b %                                             ",
"                                ; ; < 9 @ ~ F.H.H.w.:.d.F.F.v.j.4.5.t.H.H.H.F.4.S . -                                           ",
"                              ; 4 ; 7 O P <.r.H.m.F.H.l.6.m.H.H.v.#.e.H.H.c.*.j.N.] s                                           ",
"                                8 w 9 o U <.w.5.D.H.H.H.i.A.H.H.V.2.H.H.H.V.u.H.H.H.' .                                         ",
"                                  . 6 w 0 c &.j m N.H.H.s.w.s.F.w.4.H.H.H.D.k.H.H.H.' .                                         ",
"                                ' f.. . . . } { . [ M.t.5.c.F.s.l.D.H.A.H.l.w.m.H.H.V X                                         ",
"                                _ K.Z ..Z . 7.n.y A =.) G.H.H.H.H.H.H.H.i.c.H.A.p.Y . 0                                         ",
"                              . C _  .B.... g.H.z.8.r.,.C.H.H.H.x.H.H.H.-.H.H.A.%.@ 3 ;                                         ",
"                              8 . . * . 0 . f.H.H.S.5.i.<.4.M.M.,.l.A.c.-.,.4.p.&.@ <                                           ",
"                              ; 6 0 ; w o x p.l.H.m.a.m.H.H.a.5.p.A.H.A.5.r.w.q.<.Q .                                           ",
"                                < < 4 & i H / ^ -.4.m.H.H.H.H.4.D.H.H.H.A.H.w.-.+.E O e                                         ",
"                                  ; : & r K J o.-.-.<.a.s.t.q.$.e.d.d.t.0.@.W $.I q <                                           ",
"                                        & d G $.=.X.W :.<.#.#.;.-.{ O.>.*.( G z 7 %                                             ",
"                                        2 % & z G v F W +.W J T / D J ! R K f @ ;                                               ",
"                                          6 1 @ @ O d g i h a O O , z O 7 d @ 6                                                 ",
"                                            ; 4 6 6 % @ # O @ q q 6 % 6 = % 4                                                   ",
"                                                ; ;                     : 4                                                     ",
"                                                                                                                                ",
"                                                                                                                                ",
"                                                                                                                                ",
"                                                                                                                                ",
"                                                                                                                                ",
"                                                                                                                                ",
"                                                                                                                                ",
"                                                                                                                                ",
"                                                                                                                                ",
"                                                                                                                                ",
"                                                                                                                                ",
"                                                                                                                                ",
"                                                                                                                                ",
"                                                                                                                                ",
"                                                                                                                                ",
"                                                                                                                                ",
"                                                                                                                                ",
"                                                                                                                                ",
"                                                                                                                                ",
"                                                                                                                                ",
"                                                                                                                                "
};
