/* XPM */
static char *player_right1[] = {
/* columns rows colors chars-per-pixel */
"64 64 160 2 ",
"   c None",
".  c #000000",
"X  c #00000C",
"o  c #1C0A00",
"O  c #000012",
"+  c #00001C",
"@  c #201711",
"#  c #000124",
"$  c #000924",
"%  c #00022B",
"&  c #000A2A",
"*  c #03142C",
"=  c #0A1329",
"-  c #151B2E",
";  c #1A1E2E",
":  c #031531",
">  c #141C31",
",  c #191F32",
"<  c #211F34",
"1  c #1D202F",
"2  c #1C2233",
"3  c #142039",
"4  c #232532",
"5  c #282630",
"6  c #262A36",
"7  c #2B2A33",
"8  c #252C39",
"9  c #2A2D3A",
"0  c #2F323C",
"q  c #30303A",
"w  c #3F353C",
"e  c #443C3B",
"r  c #333642",
"t  c #303948",
"y  c #493D43",
"u  c #444544",
"i  c #41434D",
"p  c #504147",
"a  c #504E4A",
"s  c #5A4B4A",
"d  c #515258",
"f  c #6A5743",
"g  c #6F5847",
"h  c #6C5754",
"j  c #6C5B51",
"k  c #70604E",
"l  c #756056",
"z  c #555861",
"x  c #5B5C63",
"c  c #626368",
"v  c #766C60",
"b  c #696D73",
"n  c #846D5E",
"m  c #846662",
"M  c #856C62",
"N  c #897160",
"B  c #9B7F66",
"V  c #9A7E6F",
"C  c #88815B",
"Z  c #9E816E",
"A  c #979071",
"S  c #A2886C",
"D  c #A88E6D",
"F  c #AC9E6F",
"G  c #B69764",
"H  c #AE8F76",
"J  c #A28573",
"K  c #B79976",
"L  c #B99B7A",
"P  c #ADA37C",
"I  c #BCA079",
"U  c #CBA45D",
"Y  c #C5A67E",
"T  c #C5AA7F",
"R  c #C8AB7C",
"E  c #DFB876",
"W  c #8A8B8D",
"Q  c #B6B099",
"!  c #BBB291",
"~  c #9D9EA0",
"^  c #A3A3A4",
"/  c #A7A7A9",
"(  c #ABABAD",
")  c #B8B8BA",
"_  c #C4AF86",
"`  c #C8A983",
"'  c #D0AF80",
"]  c #C5B187",
"[  c #C3B88F",
"{  c #D2B284",
"}  c #D9B687",
"|  c #DEBB84",
" . c #D0BB8C",
".. c #DEBB89",
"X. c #C8BD93",
"o. c #E1BE8A",
"O. c #E1BC82",
"+. c #DAC38D",
"@. c #E6C186",
"#. c #E6CC85",
"$. c #E5C38C",
"%. c #E8C78A",
"&. c #E9C98E",
"*. c #EBD98F",
"=. c #E9C690",
"-. c #E6CD93",
";. c #EACC92",
":. c #E7CB9B",
">. c #E8CD9E",
",. c #EDD397",
"<. c #EAD49B",
"1. c #ECDB9C",
"2. c #CFCCBB",
"3. c #E5CAA2",
"4. c #E8CEA1",
"5. c #E9CFAC",
"6. c #EAD2A4",
"7. c #E6D9A6",
"8. c #EDDBA4",
"9. c #EDDCAA",
"0. c #F2DDA6",
"q. c #F3DEAE",
"w. c #ECD8B3",
"e. c #EFE0A3",
"r. c #EFE1AC",
"t. c #EFE1B4",
"y. c #EEE3BF",
"u. c #F1E5B5",
"i. c #F5E8B5",
"p. c #F2E7BD",
"a. c #F4EABC",
"s. c #C3C3C5",
"d. c #C7C7C8",
"f. c #CDCDCE",
"g. c #D4D2CD",
"h. c #D6D6D7",
"j. c #EDDFC1",
"k. c #F3E9C2",
"l. c #F4ECCC",
"z. c #F2E6C3",
"x. c #F3E4D3",
"c. c #F6EDD4",
"v. c #F6EBDA",
"b. c #F9F1D3",
"n. c #FFF8D7",
"m. c #F7F1DB",
"M. c #F8F3DE",
"N. c #E3E4E3",
"B. c #EDECEC",
"V. c #F7EEE4",
"C. c #FAF4E4",
"Z. c #FAF6EB",
"A. c #FCF8ED",
"S. c #FAF7F3",
"D. c #FCFAF4",
"F. c white",
"G. c #FEFEFE",
"H. c #FDFDFD",
"J. c #FDFDFA",
"K. c #F4F5F5",
/* pixels */
"                                                                                                                                ",
"                                                                                                                                ",
"                                                                                                                                ",
"                                                                                                                                ",
"                                                                                                                                ",
"                                                                                                                                ",
"                                                                                                                                ",
"                                                                                                                                ",
"                                                                                                                                ",
"                                                                                                                                ",
"                                                                                                                                ",
"                                                                                                                                ",
"                                                                                                                                ",
"                                                                                                                                ",
"                                                                                                                                ",
"                                                                                                                                ",
"                                                                                                                                ",
"                                                                                                                                ",
"                                                                                                                                ",
"                                                                                                                                ",
"                                                                                                                                ",
"                                                                                                                                ",
"                                                      9 . r . O u 8 . . 9                                                       ",
"                                                + X 3 . ^ G.( i . . ~ W . : . * 9                                               ",
"                                            > . a z o ^ G.G.G.B.2.N.G.G.^ @ x 9 . 9                                             ",
"                                          0 . ! D.G.l.b.G.G.G.A.C.G.G.G.c.3.G.B.i +                                             ",
"                                          % F n.G.G.G.G.G.G.V.E A.G.G.D.o.w.G.G.N.. 6                                           ",
"                                        + . G q.G.G.G.D.8.1.6.x.m.D.C.r.#.p.G.G.b.C +   -                                       ",
"                                      + d ^ S.:.<.C.G.C.>.$.D.G.D.l.*.C.G.C.C.A.-.;.k # 5 -                                     ",
"                                      . s.G.G.G.5.G.G.G.D.O.G.G.G.k.k.G.G.G.l.1.0.' e & 5 -                                     ",
"                                      . s.G.G.G.j.G.G.G.M.#.z.A.r.8.l.G.K.g.7.:.T j + - .                                       ",
"                                      . Q G.G.l.e.C.D.A.A.C.r.l.A.k.<.j.b . [ A . 8 7 0 c                                       ",
"                                      2 . X.i.D.G.p.p.G.G.G.G.G.G.G.v.U . P e.7 # . . s.h.                                      ",
"                                      7 # f 0.D.G.v.:.G.G.D.x.G.G.G.x.+.u y.A.u i N.d.) f..                                     ",
"                                        # g 0.9.<.$.4.M.C.w.6.C.l.;.<.r.8.G.G.t d / ^ r i -                                     ",
"                                        %  .;.8.9.8.r.A.A.c.e.1.l.D.D.l.u.A.S.v . . . = # -                                     ",
"                                      - 1 { } &.u.D.C.G.G.G.c.8.G.G.G.G.k.-.$.D + q 6 - - >                                     ",
"                                      - 2 y L ..L 3.5.t.a.a.3.o.6.t.a.9.%.$.$.Y M 7 - , ,                                       ",
"                                        - # w h Z | @.&.] _ $.$.| @.,.| L o.=.{ h - -                                           ",
"                                          5 * # l J I K m B R S V ` } H m n N e # >                                             ",
"                                            1 2 & s # < s # + # s p y s e + # & 2 -                                             ",
"                                              - - # 5 > # 7 7 5 # # $ # * 5 5 - -                                               ",
"                                                  1 -                     - -                                                   ",
"                                                                                                                                ",
"                                                                                                                                ",
"                                                                                                                                ",
"                                                                                                                                ",
"                                                                                                                                ",
"                                                                                                                                ",
"                                                                                                                                ",
"                                                                                                                                ",
"                                                                                                                                ",
"                                                                                                                                ",
"                                                                                                                                ",
"                                                                                                                                ",
"                                                                                                                                ",
"                                                                                                                                ",
"                                                                                                                                ",
"                                                                                                                                ",
"                                                                                                                                ",
"                                                                                                                                ",
"                                                                                                                                ",
"                                                                                                                                ",
"                                                                                                                                "
};
