/* XPM */
static char *player_right2[] = {
/* columns rows colors chars-per-pixel */
"64 64 165 2 ",
"   c None",
".  c #000000",
"X  c #00000F",
"o  c #000014",
"O  c #00001C",
"+  c #000025",
"@  c #000D27",
"#  c #00002B",
"$  c #02132B",
"%  c #0F162B",
"&  c #0F192D",
"*  c #151C2E",
"=  c #1A1E2E",
"-  c #000F34",
";  c #151F34",
":  c #181F32",
">  c #152030",
",  c #1D2132",
"<  c #3B322C",
"1  c #242532",
"2  c #252935",
"3  c #2A2A34",
"4  c #2A2D39",
"5  c #252A3A",
"6  c #312B37",
"7  c #382F3B",
"8  c #2F353B",
"9  c #31333E",
"0  c #3D3738",
"q  c #453A3E",
"w  c #5C522B",
"e  c #363C42",
"r  c #3C3E47",
"t  c #3C3F49",
"y  c #323541",
"u  c #463842",
"i  c #40424D",
"p  c #494749",
"a  c #534646",
"s  c #5C4C49",
"d  c #5F5947",
"f  c #5E5446",
"g  c #4C4D54",
"h  c #6E5E4F",
"j  c #64534D",
"k  c #725B57",
"l  c #745D59",
"z  c #736A47",
"x  c #776555",
"c  c #7B6855",
"v  c #7C655B",
"b  c #7B755C",
"n  c #64656A",
"m  c #73777D",
"M  c #7B7C7F",
"N  c #867D57",
"B  c #937D5E",
"V  c #8F6F67",
"C  c #8F7467",
"Z  c #8D7168",
"A  c #827566",
"S  c #917569",
"D  c #988B66",
"F  c #9E816F",
"G  c #8A887C",
"H  c #A28B6D",
"J  c #A48671",
"K  c #AC8E72",
"L  c #AE9176",
"P  c #A89E79",
"I  c #B59B77",
"U  c #B99D7D",
"Y  c #B9A576",
"T  c #BFA07C",
"R  c #B1A474",
"E  c #C2A166",
"W  c #C2A37E",
"Q  c #CDAB7F",
"!  c #DDB576",
"~  c #E1BC7E",
"^  c #E4C77D",
"/  c #7E7F82",
"(  c #878789",
")  c #8F8F92",
"_  c #97989C",
"`  c gray61",
"'  c #ADA589",
"]  c #B4A380",
"[  c gray68",
"{  c #AEAFB2",
"}  c #B6B7BA",
"|  c #BCBCBD",
" . c #CBAB81",
".. c #D2B285",
"X. c #DCB986",
"o. c #D6BE8C",
"O. c #DDBA8A",
"+. c #C4B995",
"@. c #E2BE8B",
"#. c #E1BB81",
"$. c #C7BDB2",
"%. c #E4C186",
"&. c #E5C48C",
"*. c #E8C58F",
"=. c #E6CB8E",
"-. c #E8CA88",
";. c #E5C697",
":. c #E6CB95",
">. c #ECCD93",
",. c #E6CA9D",
"<. c #EAD496",
"1. c #E5D19B",
"2. c #EAD19B",
"3. c #EBDA9C",
"4. c #DBC4A7",
"5. c #D2C9A9",
"6. c #E6CAA5",
"7. c #ECD4A4",
"8. c #EDDDA4",
"9. c #EBD4AF",
"0. c #EDDFAA",
"q. c #F0DAA6",
"w. c #ECD3B2",
"e. c #EEDCB2",
"r. c #ECD6BC",
"t. c #E3DBBF",
"y. c #EFE1A6",
"u. c #EFE1AD",
"i. c #F1E4AC",
"p. c #F2E2A2",
"a. c #F1E4B5",
"s. c #F3E6BC",
"d. c #F3E9BD",
"f. c #F9EEBE",
"g. c #C1C1C3",
"h. c #CCCCCE",
"j. c #D2CFC4",
"k. c LightGray",
"l. c #DCDBDB",
"z. c #EFDEC8",
"x. c #F2E6C3",
"c. c #F3E9C5",
"v. c #F4EBCB",
"b. c #F9EFCB",
"n. c #FCF3CC",
"m. c #F5ECD2",
"M. c #F2E7D9",
"N. c #F6ECDB",
"B. c #F7E9D7",
"V. c #F6F0D6",
"C. c #F7F1D9",
"Z. c #FFF8DD",
"A. c #F9F1D2",
"S. c #D6D9E0",
"D. c #E5E5E6",
"F. c #EDEDEE",
"G. c #F6EDE2",
"H. c #F9F4E5",
"J. c #FAF5EC",
"K. c #FCF9EE",
"L. c #FCFBF4",
"P. c white",
"I. c #FEFEFF",
"U. c #FDFDFD",
"Y. c #FEFDFB",
/* pixels */
"                                                                                                                                ",
"                                                                                                                                ",
"                                                                                                                                ",
"                                                                                                                                ",
"                                                                                                                                ",
"                                                                                                                                ",
"                                                                                                                                ",
"                                                                                                                                ",
"                                                                                                                                ",
"                                                                                                                                ",
"                                                                                                                                ",
"                                                                                                                                ",
"                                                                                                                                ",
"                                                                                                                                ",
"                                                                                                                                ",
"                                                                                                                                ",
"                                                                                                                                ",
"                                                                                                                                ",
"                                                                                                                                ",
"                                                        3 2 . . 4 3 1 , 5 ,                                                     ",
"                                                      e X . g.M . o . O . = 9 y                                                 ",
"                                                1 # . . d h.I.I.k.w | I.g.. . . ,                                               ",
"                                                # z j.h.v.I.I.I.I.I.I.I.I.+.$.} . 2                                             ",
"                                                . +.I.I.v.I.I.I.I.G.I.I.I.q.N.I.( .                                             ",
"                                              + R Z.I.I.L.I.I.I.;.z.I.I.N.! M.I.l.. 2                                           ",
"                                            p o E s.I.I.I.x.8.2.r.H.I.C.<.-.H.I.A.N + 1 *                                       ",
"                                            . m J.~ u.H.L.^ ~ m.I.K.u.u.L.L.m.J.7.I o 3 ,                                       ",
"                                          . ) l.I.w.=.K.I.m.#.G.I.I.8.s.I.I.J.n.&.+ > = *                                       ",
"                                          . l.I.I.I.r.I.I.I.;.m.I.L.8.L.{ _ I.b f 1 * @                                         ",
"                                          . k.I.I.J.e.I.I.H.8.3.m.a.p.t.. G 5.. - 9 % t t                                       ",
"                                          . ' K.J.v.s.m.H.L.I.V.m.L.b.o.o 1.D o . . n F.g                                       ",
"                                          * O 1.i.I.I.8.L.I.I.I.I.I.I.4.. O.H . | l.` D.g                                       ",
"                                            6 &.a.I.I.N.J.I.I.J.I.I.I.w.Y 1.P . [ } / r i                                       ",
"                                            8 X.8.c.x.7.G.I.H.;.L.L.9.8.i.n.` . . . . O $                                       ",
"                                            e 1.2.3.=.;.v.C.c.8.u.u.m.v.3.b.S.. ; 4 , = :                                       ",
"                                            8 1.&.0.a.i.L.I.L.y.y.x.I.I.s.c.I.A < $ = * :                                       ",
"                                            0 ..O.=.s.L.L.I.I.J.<.L.I.I.L.0.%.@.h O 1 ;                                         ",
"                                            , a W X.U 6.e.d.f.e.@.,.a.d.2.&.&. .Z v +                                           ",
"                                            * + q l J %.&.o.] ..&.%.&.>.Q T >...l a $                                           ",
"                                              1 + q J ..&.K V O.&...*.*.L F O.W 1 + 1                                           ",
"                                                1 + s k c S x B h v I K C j u 7 $ 1                                             ",
"                                                * , $ * + 3 + O + 1 # # 1 + @ $ ,                                               ",
"                                                    = = 1 &             % , , , *                                               ",
"                                                    * : *                 * : *                                                 ",
"                                                                                                                                ",
"                                                                                                                                ",
"                                                                                                                                ",
"                                                                                                                                ",
"                                                                                                                                ",
"                                                                                                                                ",
"                                                                                                                                ",
"                                                                                                                                ",
"                                                                                                                                ",
"                                                                                                                                ",
"                                                                                                                                ",
"                                                                                                                                ",
"                                                                                                                                ",
"                                                                                                                                ",
"                                                                                                                                ",
"                                                                                                                                ",
"                                                                                                                                ",
"                                                                                                                                ",
"                                                                                                                                ",
"                                                                                                                                "
};
