/* XPM */
static char *space[] = {
/* columns rows colors chars-per-pixel */
"64 64 221 2 ",
"   c None",
".  c #00001E",
"X  c #000025",
"o  c #00002B",
"O  c #010D2C",
"+  c #18192E",
"@  c #0E112F",
"#  c #1E262F",
"$  c #182531",
"%  c #003337",
"&  c #1E3831",
"*  c #07272F",
"=  c #21242D",
"-  c #242C2E",
";  c #2A2E2E",
":  c #323A2F",
">  c #292E30",
",  c #2A3331",
"<  c #2E3B33",
"1  c #253736",
"2  c #373831",
"3  c #323230",
"4  c #423730",
"5  c #194C3D",
"6  c #3D452D",
"7  c #2C473A",
"8  c #384835",
"9  c #3D563E",
"0  c #3F5237",
"q  c #484334",
"w  c #435335",
"e  c #4C5B35",
"r  c #465935",
"t  c #565938",
"y  c #4D6336",
"u  c #4E6538",
"i  c #53633A",
"p  c #566B3A",
"a  c #5A6D3B",
"s  c #5B633A",
"d  c #5D703B",
"f  c #656A3B",
"g  c #68663D",
"h  c #726B3E",
"j  c #62753C",
"k  c #657A3B",
"l  c #697C3C",
"z  c #75733F",
"x  c #76793E",
"c  c #375641",
"v  c #39744E",
"b  c #4B6742",
"n  c #4B6A45",
"m  c #4D734C",
"M  c #54764C",
"N  c #577649",
"B  c #507152",
"V  c #566542",
"C  c #686F45",
"Z  c #726D40",
"A  c #667A42",
"S  c #797642",
"D  c #7A7843",
"F  c #837B44",
"G  c #6C813D",
"H  c #72843E",
"J  c #75863E",
"K  c #5D8453",
"L  c #5A8E58",
"P  c #6C8543",
"I  c #68864A",
"U  c #748B41",
"Y  c #7A8D44",
"T  c #778847",
"R  c #7B9344",
"E  c #7F9A43",
"W  c #799749",
"Q  c #628B53",
"!  c #638756",
"~  c #65925B",
"^  c #6E9C5D",
"/  c #699558",
"(  c #789A56",
")  c #7C8D58",
"_  c #7EA456",
"`  c #7DAB5D",
"'  c #7BA65D",
"]  c #5C8E76",
"[  c #5C8B6D",
"{  c #7E8F60",
"}  c #6B9C6C",
"|  c #669C69",
" . c #749C6C",
".. c #7C9D6C",
"X. c #729D61",
"o. c #649373",
"O. c #6A9472",
"+. c #6A9870",
"@. c #739572",
"#. c #789872",
"$. c #648D70",
"%. c #6DA465",
"&. c #6EA168",
"*. c #74A664",
"=. c #7BA564",
"-. c #76A862",
";. c #7BA962",
":. c #7CA169",
">. c #76A569",
",. c #7EB069",
"<. c #8C8547",
"1. c #8C8B49",
"2. c #878746",
"3. c #938E4C",
"4. c #839B45",
"5. c #8D944A",
"6. c #819C49",
"7. c #869849",
"8. c #95924B",
"9. c #98994D",
"0. c #8B9A58",
"q. c #999D53",
"w. c #A49D51",
"e. c #A0994F",
"r. c #89A446",
"t. c #85A34A",
"y. c #8BA64A",
"u. c #8EAC4A",
"i. c #8DAA47",
"p. c #93AD4B",
"a. c #9DAC4E",
"s. c #91AB47",
"d. c #94B44D",
"f. c #99B64E",
"g. c #96B84D",
"h. c #9BB94D",
"j. c #83A453",
"k. c #8CAC53",
"l. c #84AD5D",
"z. c #8BAE5C",
"x. c #81A657",
"c. c #93AE5E",
"v. c #9CAF5F",
"b. c #8DB256",
"n. c #86B05A",
"m. c #8CB159",
"M. c #94B553",
"N. c #9BB652",
"B. c #96B955",
"V. c #9CB951",
"C. c #93B25A",
"Z. c #9BB25B",
"A. c #95BA5B",
"S. c #A2BB4D",
"D. c #AABC4E",
"F. c #A5B94A",
"G. c #A3A451",
"H. c #AAA553",
"J. c #ABAB54",
"K. c #A3AD54",
"L. c #B1AB55",
"P. c #B2AB58",
"I. c #A3B655",
"U. c #AAB655",
"Y. c #A4B951",
"T. c #ACBA53",
"R. c #A4B45B",
"E. c #ABB55C",
"W. c #AEB858",
"Q. c #B4B356",
"!. c #B3BA55",
"~. c #BBBB56",
"^. c #B3B65C",
"/. c #BBB65D",
"(. c #B5B959",
"). c #BCBA5A",
"_. c #BFB654",
"`. c #B1B34E",
"'. c #849D6D",
"]. c #8B9E6E",
"[. c #8A9E65",
"{. c #919F6F",
"}. c #829A71",
"|. c #83A664",
" X c #83AA61",
".X c #8CAB62",
"XX c #83A169",
"oX c #8BA16B",
"OX c #8BA764",
"+X c #93A667",
"@X c #94AC62",
"#X c #9BAC63",
"$X c #93A36B",
"%X c #9CA66A",
"&X c #9EA868",
"*X c #82B369",
"=X c #82B061",
"-X c #9AB060",
";X c #A4AC65",
":X c #ABAE65",
">X c #A0A76A",
",X c #A3A969",
"<X c #ABAE68",
"1X c #A3B160",
"2X c #ACB162",
"3X c #B4B262",
"4X c #B9B461",
"5X c #B0AF65",
"6X c #C4BE57",
"7X c #C2BB5B",
"8X c #C8BF57",
"9X c #9FC158",
"0X c #A3C24F",
"qX c #A3C352",
"wX c #AAC454",
"eX c #B1C255",
"rX c #BCC25A",
"tX c #C4C45D",
"yX c #C9C55C",
"uX c #CEC961",
"iX c #D0CA62",
/* pixels */
"  $ R R o - o   o L ^ O h t o q.z * n 7 Q.1.u d.: Z q d = M N   . 3./.I L z 7Xt v p P.7Xh X 8.e.@ u.J $ 5 2 ).J..     + R j     ",
"  o f.qXJ d.U A s.0.=.1.uX<.8.iX<.5 *X0./.J.s.u.1.tXq.N.s.b.L <.1.8.7XE.%X7X/.Z R.J.!.Y.U.j J.tX9.t.h.~ %XF 7X1.3.J.q I wXqX,   ",
", 9 8 l.N.h.d.R wX!.(.7X7XG.7XQ.J.5.5.7X/.7XY.s.f.h.B.B.h.h.a.!.tXJ.(.).7X).J.J.7X7X).!.h.Y.a.h.h.f.h.Z.(.Q./.P.rXQ.C n.s.G +   ",
"b *X_ k.B.h.h.h.f.g.h.Y.W.h.W.h.Y.Y.W.7X(.).(.).!.Y.W.Y.h.h.h.g.f.!.Y.N.W.g.Y.h.!.).).).!.).W.Y.W.S.h.h.g.h.S.!.h.U ( ;.t.s.d.- ",
"9 K W N.B.l.z.z.h.W.W.h.h.h.B.B.h.h.h.S.h.h.Y.S.B.;.=.l.l.b.S.W.W.h.h.h.B.Z.h.h.S.Y.h.h.S.N.z.;.;.b.l.B.S.!.Y.h.h.B.;.b.d.y.6.# ",
"o G P l.b.;.;.;.c.(.7X(.A.l.b.l.B.h.b.B.f.B.B.l.;.b.b.*.;. XZ.).).E.z.l.b.l.h.Z.l.B.B.h.B.;.` b.l.*.;.z.E.7X).R.l.b.l.b.S.4.o   ",
": N.h.h.S.b.h.B.=.B.B.l.b.b.B.l.B.b.*.l.=.l.B.B.B.h.h.B.h.z.` N.z.b.b.B.B.l.d.l.;.l.;.b.B.B.B.h.B.B.h.l.l.N.l.b.b.B.b.*.A.k.%   ",
"  * f k T x U.).&XO.'.$X=.;.-.;.l.*.B.g.B.h.d.z.oXXX..OX!.4X].o.$XXX=.;.-.;.` ` h.B.B.h.B.OX].XX..v.~.;X#. .$X:.;.-.;.;.*.;.A 4 ",
"D J./.q.P.7X/.E.(.;XE.!./.(.U.h.B.=..X@XZ.R.%X3X).2X/./.).R./.>X!.(.).E.N.h.b.=.z.c.U.v.%X3X(.2X/./.(.E.3X;X~./.).R.f.h. Xz.yXG.",
"8.G.k.A.Z.A..X*.*.c.A.B.Y.U.U.h.B.Z.U.W.U.Y.S.W.B.l.Z.c. X%.=.c.b.N.Y.R.Z.h.B.U.W.W.W.Y.S.W.b.z.Z..X;.%..XA.b.Y.U.R.f.h.A.%X3.g ",
"X & d.h.B.l.-.l.l.%.*.` ` .Xv.d.h.h.h.h.Y.).W.h.h.B.b.` ;.b.;.%.*.` ` @XA.g.h.h.h.h.W.).Y.h.h.B.n.;.;.b.*.*.;.` l.%XB.h.h.B.W O ",
"a G.U.h.B.B.B.h.f.b.B.W.(.).).W.S.h.h.S.!.W.!.).Y.B.B.B.B.h.B.b.Z.(.!.).).D.S.h.h.W.!.Y.~.!.B.B.B.B.N.h.b.B.Y.(.!.).!.S.S.h.0X4.",
"R 6. Xb.h.h.S.h.f.h.b.c.Z.;. X1XZ.Z.z.l.b.B.B.B.h.h.h.h.h.h.h.h.z.Z.c.*.@XR.Z.A.l.n.b.B.B.B.h.h.h.h.h.h.h.B..XZ. X*.%X1XZ.c.B.U ",
"- W N.b.B.h.b.h.h.l.b.g.h.B.-.l.` -.-.-.` l.b.B.h.h.h.B.b.h.B.l.B.h.Z.b.-.l.` -.-.-.l.z.B.h.h.h.h.b.B.S.b.l.d.h.Z.` ` l.;.^ c + ",
"j qXi.h.z.XX$X ...$X+XB.).).A.f.h.h.Z.Y.!.S.h.B.B.h. X$X'. ...$X.XY.7X(.b.h.h.h.Z.W.!.F.h.B.h.B.OX$X..&.].$Xz.W.7XR.B.S.f.Y.T   ",
"O e z ) }.$X8X3X;X7X7X(.7X7X).U.h.!.).).!.c.=.].@...}.2X8X;X3X8X/./.7X7X(.h.Y.).).).E.l.:.].O.'.}.).7X,X).7X(.).7X7XW.g.Y.).1.1.",
"r u.(./.~./.(.R.).(.S.~.E.v.7X).W.h.h.W.c.$X,X).3X(.~./.(.E.).W.D.).Z.E.7X).Y.h.h.W.OX&X;X).;X).)./.E.(.).Y.!.(.@X).7X!.h.d.U.9.",
"p g.Y.~.B..X X%.b.S.b.` ;.*.U.Y.h.N.!.!./.).!.h.~.!.l.@X;.*.Z.h.n.;.*.l.Y.Y.h.Y.!.(.).~.D.h.8XY.l..X%.` h.g.l.;.%.A.W.Z.Y.rXJ.r ",
"X 6.B.z.=.` -.;.*.;.;.;.Z.b.l.h.h.Y.Y.g.Y.N.g.B.B.z.;.` *.;.*.` *.l.N.l.b.h.h.Y.N.h.Y.h.g.b.A.;.` ;.;.;.-.;.*.B.B.l.B.h.f.7.A.0X",
"a d.N.l.z.S.B.h.B.l.B.B.h.h.h.B.Z.b.*.B.h.h.h.Y.B.l.Z.S.B.h.b.z.Z.B.h.h.h.B.h.l.;.h.h.h.h.U.b.l.S.h.B.f.l.b.B.B.h.h.B.B.N.m u U ",
"Y.0X!.).).R.B.B.B.l.B.B.B.h.b.*.=.;.;.` b.B.W.).~.~.).Z.B.B.b.z.B.B.B.h.l.*.=.=.;.l.b.B.!.7X!.).E.B.B.B.z.b.Z.B.f.B.;.*.;.Q N A ",
"e U ).).Z.b.l.;.*.*.;.;.*.|  .;.l.=.| *.n.Z.W.).7XW.A.z.l.*.*.*.;.*.&.O.*.` l.&.| ;.b.U.!.).).R.b.l.;.*.=.=.;.*.| | =.l.l.~ A.qX",
"q w.7XY.h.h.b.;.*.*.*.o...'.] oXOX@X&XO.U.!.(.7X).h.h.h.z.;.*.-.%.o.oX#.O.$XXX;X].:.D.!.).7XW.g.h.B.l.;.*.-.| @.oXO.#.0.J s k s.",
"D uX).!.W.h.h.f.A.@XoX$X7X7X;X7X).7X7X/.(.Y.h.Y.(.!.Y.h.h.B.c.@X'.;X7X/.;X7X/.7X7X/.W.h.g.W.).W.N.h.h.B.@X@X'.(.8X;X3X7X/.7Xq O ",
"> D 4.Y.S.S.h.h.Y.W.!.).).W.7XW.!.!.(.7X).7XW.W.W.S.S.h.h.h.W.W.(.7X!.!.).W.~.W.).7X7X).Y.W.Y.S.S.h.h.Y.W.W.).7XW.~.~.W.).a.9.J.",
"U d.4.U.Z.U.h.h.h.g.g.h.S.h.Y.h.h.g.Y.(.W.!.!.).!.Z.Z.U.h.h.g.g.g.Y.h.h.S.g.h.g.W.(.W.!.!.~.W.Z.R.Y.h.h.g.g.g.Y.h.Y.h.g.f.g.eX).",
"P 4.k.l.*.*.;.;.Z.(.).W.Z.B.b.b.h.h.h.h.h.h.h.B.` *.*.;.;.l.Y.).(.Y.B.B.z.B.h.h.h.h.h.h.h.b.;.*.*.;.=.A.W.).!.Z.B.B.l.Z.h.d.H t ",
"X e h.B.N.l.l.l.z.E.~.E.A.l.B.b.B.h.;.l.b.B.B.l.l.h.Z.;.b.l.A.(.!.R.b.z.B.l.h.B.;.b.b.B.b.l.b.h.B. Xz.l.Z.!.U.Z.l.b.B.l.B.b.~ o ",
"n ! ( :.B.z.h.U.=.l.l.=.` b.b.;.b.l.l.b.;.b.g.h.z.b.B.b.S.c.*.b.=.` ` b.l.;.b.` b.z. Xb.h.B.z.B.z.B.Y.OX=.b.=.` l.b.;.l.b.;.T , ",
"Q >.[ [.%XoX(.7X3X@.$X;X@X.X` l.l.*.b.B.d.h.A.OX&X$X$X+X~.7X,XO.,X&X@X;.l.z.;.;.B.B.h.Z.z.+X>XoX$X;X7X/.].#.;X$X@X;.l.b.-.` d.u.",
", p f 1X(.).(.@XZ.(.U.D.~.~.W.h.B. X@X1XR.R.;X/.(.R.)./.(..XE.2XD.!.~.).S.h.b. X%X1XE.v.2X).E.E.).(.R.z.(.E.D.~.).!.S.h.z..XR.H ",
"d Y.y.b.b.l.*.*.*.;.` l.b.z.A.h.Z.N.Y.S.Y.W.h.h.B.b.b.;.*.*.*.;.` b.b.z.B.h.B.Y.Y.S.Y.Y.h.h.b.b.z.;.*.*.*.` l.b.b.z.B.h.Z.S.eX5.",
"r d.N.h.h.b.l.B.b.*.;.z.b.R.E.g.h.h.h.Y.!.).(.W.h.B.b.l.l.B.l.*.l.A.A.(.R.g.h.g.h.Y.(.).(.Y.h.B.b.l.z.B.;.=.l.b.Z.(.Z.g.h.4.E G ",
"k f.h.h.h.h.Z.h.h.B.Z.E.(.E.(.!.W.S.Z.h.W.S.S.!.N.g.N.f.h.h.Z.B.Z.(.(.E.(.!.Y.S.B.S.W.h.W.!.h.Z.h.h.h.h.B.B.U.(.(.E.).W.W.U m N ",
"j y.j.l.l.b.B.h.h.h.l.z.b.-.*..X.X.X;.;.` b.b.b.h.h.h.h.h.h.h.B.l.b.l.%.;..X.X.X=.;.l.b.b.b.h.h.h.h.h.h.h.b.l.B.` %. X.X.XX.l.h.",
"X P N.N.N.b.=.b.B.=.z.h.Y.Y.` b.b.` ` l.b.B.B.h.h.h.h.z.=.B.z.=.B.h.W.Z.` B.l.` ` l.b.B.d.h.h.h.Z.OX Xh.OXOXg.S.W.z.l.B.l.n.P 6 ",
"  u 4.y.P { ;X'...;X;XZ.).7XE.g.h.S.W.!.~.D.h.OXz.z.| &X,X .oX5X%XU.7X).Z.h.h.W.W.~.~.S.B.=.z.l. .;X$X .&X;X@X!.7X(.B.h.h.W.T o ",
"t J.F t w.P.7X7X/.7X).7X7X).7XW.N.W.!.!.U.OX .>X}.oX>X3XyX/.).8X).7X).).7XY.Y.!.!.!.Z.:.'.,X@.&X&X).8X/.7X8X).7X).7X).N.Y.U.K._.",
"J.tX).7XrX).E..XE.W.h.W.@X.X).).W.g.h.!.;X;X3X!.7X).!./.v.c.!.Y.h.E. XZ.7X).Y.g.Y.!.%X3X(.~.7X~.!.(..XR.!.h.Y.R.;.(.).!.h.h.f.2.",
"f u.Y.!.l.*.*.%.l.B.z.*.` ;.b.h.g.Y.!.W.).~.S.g.W.W.' =.*.*.b.B.;.-.` ;.B.h.h.W.!.W.7X!.S.g.!.B.*.=.%.;.B.B.*.` ;.l.N.g.N.Q.4.p ",
"6 y.b.` -.b.l.l.;.*.;.l.h.B.b.h.h.N.B.g.h.h.g.B.n.;.` b.;.l.*.=.;.z.h.B.B.h.h.Z.B.h.h.g.g.b.l.*.b.l.l.l.*.;.;.B.h.b.B.h.h.B.qXy.",
"f.qXh.Z.R.D.h.h.h.b.h.h.h.h.h.l.b.l.*.B.h.h.N.!.Y.B.W.S.h.h.B.B.h.B.h.S.B.l.B.;.;.f.h.h.Y.!.Z.Z.W.h.h.h.b.B.h.B.h.S.b.z.k.*./ 0 ",
"u.f.y./.).@Xb.z.l.;.l.b.b.B.l.;.;.-.;.;.l.b.W.).).7XE.z.b.l.l.;.b.b.b.B.;.;.*.;.;.;.l.B.!.7X).).R.b.b.l.;.l.b.b.B.z.;.;.;.A.B.x.",
"; & h !.B.B.l.=.*.;.;.*.| ] O.=.l.=.+.&.B.Y.!.).).Z.b.b.l.*.*.;.;.&.+.]  .=.l...+.;.N.W.(.).).B.B.b.;.*.*.;.*.| o.o.~ b M Q t.0X",
"K *.V k.N.h.B.l.;.*.%.o.&X;XO.,X&X;X3X].E.W.W.).).Y.S.h.b.l.-.*.+.@.;X$X@.;X$X3X;XoXW.W.W.7X!.S.h.B.b.` *.*.o.'.;X}.0.L.<.3.D r ",
"K =.k.` n.B.h.h.Z.R.;X;X8X7X/.7X7X7X7X7X).W.h.h.!.W.Y.h.h.h.R.R.&X/.8X)./.7X7X7X7X7X!.W.g.S.!.W.N.h.h.N.R.;X,X7X7X/.7X7X7XyXQ.3 ",
"o 9.rXD.S.Y.h.h.S.S.D.!.(.Z.~.Y.Y.Y.W.7X).7X!.(.!.S.S.Y.h.h.S.S.W.).Y.Y.!.N.W.Y.).7X).7X!.).W.S.W.S.h.S.S.S.!.).N.!.W.Y.W.f.rXw.",
"R s.K.A.z.A.B.B.h.h.N.g.h.h.h.g.h.g.S.W.Y.Y.W.W.Y.A.z.B.B.B.h.N.h.h.h.h.h.h.h.h.S.W.N.W.W.W.Z.z.z.Z.B.h.h.Y.h.h.h.h.h.h.h.h.7.q ",
"i u -.;.` *.=.=.Z.(.7X(.Z.b.b.l.B.h.B.g.h.h.g.b.*.;.;.*.*. XR.).).U.b.b.l.b.h.h.B.h.h.h.d.l.*.` *.*.*.z.E.7X).R.b.b.l.B.h.N.i.u ",
"  % x.h.S.b.B.b.l.Z.W.Z.B.b.B.b.B.B.*. Xl.z.B.b.B.S.h.b.B.n.b.W.U.B.b.b.B.l.h.b.*.l. Xb.B.b.g.F.B.b.B.l.B.W.Z.B.b.B.B.b.h.` A.R ",
"* F z k j. XS.E.oX .=.XX*.` ` *.l.;.b.B.b.B.h.B.OXOXOXl.W.1X..*.'.=.-.l.;.;.l.;.B.B.b.B.h.b.=. X=.B.!.%X .=.'.*.` l.*.;.l.l.6.7 ",
"Z tX).P.P.3X7X).).{.;X(.;XR.b.B.b.*.l.z.B.Z.@X%X3X;X;X;X7X).3X}.(.2X2Xc.B.B.l.-.b.b.h.Z.+X;X3X,X;X3X7X).;X].).;X2Xz.B.B.=.l.x.^ ",
"g N.Y.@XE.E.R.;. XR.U.S.!.!.W.h.B.c.R.E.E.R.R.~.R.A.(.E.v.*.@XE.N.D.!.!.Y.h.B.c.R.E.E.R.U.~.Z.Z.(.R..X*.R.R.h.!.!.!.h.h.b.l.! < ",
"  r d.B.b.l.*.;.;.%.*.` ` l.z.g.h.h.h.h.h.!.S.d.g.B.b.` %.;.*.%.*.` `  Xb.h.h.h.h.h.Y.!.h.g.d.B.l.-.*.` %.*.;.` ` z.B.h.h.S.G - ",
"s P.Y.B.B.b.b.N.B.;.b.U.R.(.).S.h.h.h.Y.).(.!.~.h.B.B.b.b.h.b. XB.U.R.7X(.h.h.h.h.W.).!.).!.Z.B.B.b.B.h.l.l.Z.R.E.7XW.h.h.f.u.f.",
"i U.Z.B.B.h.h.h.h.h.B.R.E.@X%X(.U.U.A.B.Z.g.h.Y.h.h.h.h.h.h.h.h.A.E.R..XR.(.U.U.b.B.Z.g.N.Y.h.h.h.h.h.h.h.B.Z.E.-X.X(.E.U.Z.R e ",
"  X '  Xb.h.h.h.h.B.b.b.b.` *.;.;.=.*.*.-.l.z.b.h.h.h.h.h.S.h.b.b.B.b.` *. X;.=.*.*.` l.b.B.h.h.h.h.h.h.B.b.b.d.n.-.;.;.=.b.T = ",
"  2.7X).c.OX..=.l....Xh.!.!.l.B.B.b.b.B.Z.h.h.h.h.h.B.OX..l.OX'.z.h.~.U.l.h.B.b.b.B.Z.h.h.h.h.h.z.XX .z...XXB.W.~.A.b.B.-.s.0Xd ",
"h yX7X7X(.1X/.&XoX).3XE.7X7X(.h.h.!.~.).).Y.b... .=.O.;X/.].&X7X;X(.7X7XE.g.S.!.~.).~.B. X..=...@./.;X'.3X/.;X).7X).Y.l.;./ a + ",
"h J.T U.h.!.~.~.7X).!.7X).E.7X).Y.Y.Y.W.B.'.'.3X&X;X3X3X7X).7X!.!.7X(.(.7X!.Y.Y.Y.W.l.'.$X4X$X3X3X).).7X7X!.~.7XE.7X(.| +.*X*.$ ",
"  o d d.B.f.N.b.Y.S.g.A. X;.!.!.Y.h.W.!.3X/.).Y.7X~.Z.E. X;.W.S.b.A.*.c.!.W.Y.Y.W.(.3X7X!.F._.eXR.R.;.z.W.h.B..X| R.z.*. .[ B - ",
"  a qXh._ h.I ,./ j.( ;.A. X_ d.h.a.G.Y.!.W.f.h.s.T ;.-.*.;./ j.;.Q k.=XB.h.N.).9.Y.!.S.u.` N P ~ ;.K ` n.j.%.b.j.I qXt.d.k.6   ",
"  r Z.s.r a o M M *Xm H y.T N.j d.qXu G h.h.y.h.k t.h.x.;.B.' 7 c k 0XP B.R J.3.E h.u.0XT >.K 1 qX6.1 ;.m ( B.G U ; j e h.qXp   ",
"    # <         b / 9 X O > 4.8 r j , o 4.d.r p < R k c m H U o   r a   : o 2 o G a U f.8 $ = , d :   < X p 4.#         d p     "
};
