/* XPM */
static char *wall[] = {
/* columns rows colors chars-per-pixel */
"64 64 221 2 ",
"   c None",
".  c black",
"X  c #0F001A",
"o  c #030426",
"O  c #110D26",
"+  c #171629",
"@  c #0D1A2B",
"#  c #221E2B",
"$  c #1E2532",
"%  c #232B35",
"&  c #26323C",
"*  c #2B353C",
"=  c #3A3A33",
"-  c #1C3B48",
";  c #003D4F",
":  c #2D3B42",
">  c #333E43",
",  c #164654",
"<  c #2B4148",
"1  c #344146",
"2  c #34454A",
"3  c #3B4B4D",
"4  c #38484C",
"5  c #3B4E51",
"6  c #324E52",
"7  c #3C5255",
"8  c #3D565B",
"9  c #3E5A5D",
"0  c #365359",
"q  c #2C5964",
"w  c #3B5E62",
"e  c #305D65",
"r  c #376268",
"t  c #3B6B71",
"y  c #425455",
"u  c #445A5C",
"i  c #495D5C",
"p  c #415759",
"a  c #4C615F",
"s  c #596257",
"d  c #425D61",
"f  c #446364",
"g  c #4B6564",
"h  c #466669",
"j  c #4D6C6D",
"k  c #47696B",
"l  c #516867",
"z  c #526D6C",
"x  c #506766",
"c  c #53706F",
"v  c #5E746D",
"b  c #446D72",
"n  c #4B6E70",
"m  c #4C7274",
"M  c #46767C",
"N  c #4A767B",
"B  c #4E797B",
"V  c #437277",
"C  c #547474",
"Z  c #547877",
"A  c #557C7C",
"S  c #597D7C",
"D  c #557778",
"F  c #67766A",
"G  c #657B71",
"H  c #727862",
"J  c #5B807F",
"K  c #68837B",
"L  c #75897B",
"P  c #4D7D82",
"I  c #457A81",
"U  c #547F81",
"Y  c #587F81",
"T  c #4B8286",
"R  c #4B8389",
"E  c #558284",
"W  c #5B8483",
"Q  c #53868A",
"!  c #54898B",
"~  c #5D8B8B",
"^  c #5B8787",
"/  c #5B8D91",
"(  c #548E93",
")  c #559196",
"_  c #5D9293",
"`  c #5C9699",
"'  c #5D999C",
"]  c #57969A",
"[  c #638685",
"{  c #628D8D",
"}  c #678C89",
"|  c #738C82",
" . c #6B918C",
".. c #62908F",
"X. c #73938B",
"o. c #7B9487",
"O. c #639494",
"+. c #6A9494",
"@. c #659897",
"#. c #649699",
"$. c #659C9C",
"%. c #6A9C9C",
"&. c #6D9A96",
"*. c #729D9B",
"=. c #749B94",
"-. c #608F90",
";. c #6DA19F",
":. c #7BA39C",
">. c #74A19B",
",. c #5B9CA1",
"<. c #649EA1",
"1. c #6A9FA0",
"2. c #67A1A2",
"3. c #6CA3A3",
"4. c #6BA6A9",
"5. c #6DA9AC",
"6. c #67A4A8",
"7. c #72A5A5",
"8. c #7AA6A5",
"9. c #7DABA5",
"0. c #71A7A9",
"q. c #74ABAB",
"w. c #7AADAD",
"e. c #79A7A9",
"r. c #6EACB0",
"t. c #74AEB1",
"y. c #7AAFB0",
"u. c #76B1B5",
"i. c #7CB3B3",
"p. c #7DB7BA",
"a. c #7EB9BD",
"s. c #75B4BB",
"d. c #79B1AF",
"f. c #7DBAC0",
"g. c #879C89",
"h. c #9DA88A",
"j. c #8AA595",
"k. c #8BAC9F",
"l. c #83A79D",
"z. c #93AE9B",
"x. c #98AE98",
"c. c #9BB39D",
"v. c #98B19B",
"b. c #A6B191",
"n. c #84ACA2",
"m. c #8AAFA1",
"M. c #83AFA9",
"N. c #8AB1A6",
"B. c #85B2AB",
"V. c #8CB4AB",
"C. c #94B4A4",
"Z. c #9AB6A3",
"A. c #94B9AC",
"S. c #9BBCAC",
"D. c #98B8A7",
"F. c #81B5B5",
"G. c #8BBAB5",
"H. c #81B7B8",
"J. c #84BBBC",
"K. c #89BEBE",
"L. c #86B8B5",
"P. c #93BCB3",
"I. c #99BEB1",
"U. c #91BFB9",
"Y. c #A1BEAB",
"T. c #A1B9A3",
"R. c #8CC0BE",
"E. c #9CC1B4",
"W. c #94C2BB",
"Q. c #9AC5BD",
"!. c #9DC8BF",
"~. c #97C0B6",
"^. c #A5C2AC",
"/. c #ACC6AD",
"(. c #ABC1A7",
"). c #B4CBAD",
"_. c #BACBAA",
"`. c #A2C4B3",
"'. c #AAC7B1",
"]. c #ACC9B3",
"[. c #A6CBBD",
"{. c #ACCDBC",
"}. c #A1C7BA",
"|. c #B4CDB3",
" X c #B2CFB9",
".X c #AED0BE",
"XX c #BCD2B3",
"oX c #B4D2BC",
"OX c #BBD5BC",
"+X c #B8D3BA",
"@X c #CCDCB5",
"#X c #C3DABB",
"$X c #CCDFBB",
"%X c #C1D6B5",
"&X c #CDDAB0",
"*X c #D4E1B6",
"=X c #D6E2B7",
"-X c #CDE1BD",
";X c #86BFC1",
":X c #89BFC0",
">X c #86C1C4",
",X c #8CC3C4",
"<X c #8EC7C8",
"1X c #8EC8CB",
"2X c #85C3C9",
"3X c #92C6C4",
"4X c #99C7C1",
"5X c #95C8C5",
"6X c #9BC9C3",
"7X c #90C7C8",
"8X c #92C9CA",
"9X c #9BCDC9",
"0X c #98D2D3",
"qX c #9AD0D0",
"wX c #A3CCC2",
"eX c #A9CFC2",
"rX c #ACD1C2",
"tX c #A5D0C7",
"yX c #B3D4C2",
"uX c #B6D9C7",
"iX c #C0DCC2",
/* pixels */
"          u { +.[   a z C g r F.F.{ ^   c g C *.e. .S   S g W t.i.W j [       C Z i                         Z +.{ g             ",
"    i C : 7.0X8X8X<XJ.;X,X~ T.eX2X<XqXU.q.J.w.1X8X8X<X<X>X_ V.uX<X,Xi.J.%.w.8Xi.J.y.+.b g             l j 7 8X0X8Xi.#.B g       ",
"  c +.,XF.7.J.,X,X5XwXrX6X,.(.#XoX!.I.n.3.J.i.q.J.3XwXrXwX2.g.&X%X[.i.@...%.q.w.,X9XrX[.7.~         C y.,X7.y.J.:X9XtXoXe._ z   ",
"  2.R.<X2X,X3.3.i.W.[.[.G.%.I N.^.N.2.J.:XJ.,X,X,X4X[.[.P.i.%.~ B.e.%.J.,XJ.J.i.7.N.S.I.i.q.S     ~ d.9X>X1XJ.3.q.n.S.S.L.q.W   ",
"W ! z.#X[.F.3.q.K.,X>X>X,XJ.7.>X>Xp.q.7X,X,X,X,X,X,X>X>X,XK.q.,X,X;X3.,X,X,X,X<XJ.t.>X;X3X;XS     W ~ ).OXW.q.w.,Xq.>X;X,X,X~   ",
"j q.i.C.~.3.H.,X,X,X,X;X<XF.i.7X,X,Xq.J.,X,X,X,X,X,X,X>X,X,XH.,X,X,Xi.y.,X,X,X,X,X,X,X>X,XJ.~     S i.M.S.F.3.,X,X,X,X>X,X,X+.  ",
"C J.8Xa.u.7.,X,X,X,X6XoX!.5.q.,X,X,XJ.3.J.:X,X,X,X,X6XyX[.i.i.,X,X,X,X3.J.,X,X,X,X,XwXoX3Xt.u     3.8X,Xp.q.y.7X,X,X6XyX!.p.n   ",
"m J.,X,X,Xq.3.J.J.p.P.Z.&.i.,X,X,XJ.@.i.,Xi.q.J.K.p.G.c.X.q.:X,X,Xq.%.q.,XH.7.J.;Xi.A.z.[ E ~     7.,X,X,XK.3.y.,Xp.V.Z. .E / 9 ",
"6 i.,X,X,XJ.+.S +.{ ` Q m F.,X>X,X,XJ.J.rX!._ S +.+.+./ B J.<X>X,X,XJ.J.,XJ.@.S +.%.3.P m J.J.S . ~ ,X,X,X,Xq.~ ~ %.3.Q k i.,XS ",
"m 3.J.,X,XJ.J.q.K.,X,X,Xw.0.3X[.,X>X,X,X3XK.:X7.J.,X,X3XK.i.K.wX,X>X,X,X,XJ.J.J.:X,X8X,X7.F.3.z u _ y.,X,X,XJ.J.J.,X3X,X9.F.7.C ",
"~ i.<X,X,X,X,X,X,X,X,X,X7X>X[.*XrXwXwX6X,X,X,X,X,X,X,X,X,X,X!.*XOXeXwX6X,X,X,X,X,X,X,X,X,X7.~ W c 3.,X,X,X,X,X,X,X,X,X,X,Xy.E W ",
"S +.J.,X,X,X,XJ.,X,X,X,X,X>Xt.B.S.Y.Z.N.i.J.,XJ.,X,X,X,X,X,Xs.w.A.Y.S.N.i.J.,XJ.,X,X,Xi.q.7.i.W S E 7.,X,X,X,XJ.,X,X,XJ.q.3.i.+.",
"W W 7.J.:XJ.3.w.<X,X,X3X,XwX6X` E <.t.t.J.J.7.q.,X,X,X,X,X4XwX2.E @.r.t.H.J.q.3.,X,X,X,X3Xi.5.E C W +.i.J.,Xi.3.:X,X,X,X3Xp.r.~ ",
"@.J.8X,X,X,Xi.3.J.,X,X3XOX*XE.J.3X1X,X7X,X,XJ.3.J.,X,X,XoX*X'.p.3X7X,X3X,X,XJ.3.i.,X,X,X[.^.^.L n q.,X,X,X,X,X7.w.,X,X>XwX'.^.g.",
"q.J.J.,X,X,X,Xq.3.J.wXoX#XA.s.3X,X,X,XJ.,X,X,Xq.@.i.6XoX#X`.u.,X,X,X,X:X,X,X,Xi.@.u.3XoXOXoX).g S J.J.,X,X,X,XJ.@.q.,X[.OXyXXXK ",
"@.@.3.q.i.7X,XJ.,X3.e.e.+.@.yX>X>X,XJ.3.J.,X,Xy.,Xq.7.w.+.( [.,X>X,XJ.3.i.,X,Xi.J.i.3.w.:. .t 2 m @.@.q.7.J.8Xi.J.H.3.w.:.X.b 8 ",
"9 #.q.i.i.q.,X,X,X:X,X;X .B (.oXwXW.3.F.%.~ i.,X,X,X:X,X*.m I.oX[.4X0.i.7.W q.,X,X,X;X,X0.S ~ 7 % S 3.q.F.q.i.,X,X,XJ.,Xi.U ~ f ",
"y.8X,X8X,Xi.3.i.,X,X,X<X,XE m.OX6X,X<X8XW +.q.q.,X,X,X>X<X-.*.oXwX,X,X8Xw.{ i.q.,X,X,X,X8X3.@.f d ,X,X8X8X,Xq.q.,X,X,X,X8Xw.+.E ",
"J.,XJ.q.3.i.q.q.,X,X3XwX6XP Y.$X#XrXJ.3.+.,Xy.q.,X,X3X[.rX3.B.yX#XyXK.q._ q.J.0.,X,X,X,X3Xi.+.f Y ,X,Xi.3.q.i.3.J.,X,X,X3XJ.+.S ",
"W ~ %.J.J.J.,X,X,X6X[.oXG.{ S 9.E.A.3.i.,X,X,X,X6XoX#XoX[.3.Q *.I.A.7.i.J.J.,X,X,X,X,X,XK.q.~ W j ~ { i.J.J.,X,X,X,X,X,X,Xw.~ W ",
"C C w.8X,X,X,X,X,X,X>X>X,XJ.7.J.;Xu.q.8X,X,X,X,X,X,X3X,X,X:X3.J.;Xp.3.,X,X,X,X,X,X,X,X,X,XJ.3.W x S W ,X,X,X,X,X,X,X,X,X,X,X3.~ ",
"@.@.W F.<X,X,X,X,X,X,X>X,XH.w.7X,X,X0.J.,X,X,X,X,X,X,X>X,XK.q.,X,X,Xq.i.,X,X,X,X,X,X,X>X>X,X3.+.S 2._ +.,X,X,X,X,X,X,X>X>X,Xq.@.",
"%.i.@.%.J.,X,X,X,X,X6XeX6Xi.i.,X,X,X,X7.J.,X,X,X,X,X3XeXwXJ.y.,X,X,X,X3.p.,X,X,X,X,X3XwXwXJ.J.m f i.q._ q.,X,X,X,X,X,XwXeXK.J.~ ",
"d 7.%.J.,Xq.i.,X,XJ.E.(.e.q.K.,X,Xq.3.q.:Xi.i.,X,X;XW.(.m.4.J.,X,Xq.3.q.,Xi.q.,X,X>XK.(.z.@.U 3 & [ 7.3.,XJ.q.J.,X,XK.'.c.%.! 7 ",
"E ~ 3.,X,Xi.^ W ~ { 3.M ! ,X,X,X,X:Xi.J.<XH.~ W +.+.@.R P i.7X,X,X,Xi.H.7XJ.+.S +.+.@./ B q.w.k 2 _ ~ F.<X,X%.S { +.@.` M 3.i.U ",
"3.@.J.,X,XJ.J.w.H.,X7XK.3.q.,X3X>X,X,X,X,XJ.J.w.F.K.,X,Xw.3.;X3X>X>X,X,X,XJ.J.w.F.K.,X,X,XF.q.S S 2.3.,X,XJ.J.i.i.J.,X,X,XJ.q.~ ",
"7.q.w.,X,X,X,X8X,X,X,X,X,XJ.[.*X.X6X5X3X,X,X,X<X,X,X,X,X7X;X!.*X#X6X5X5X,X,X,X<X,X,X,X,X,X,X3.z C i.7.J.,X,X,X,X<X,X,X,X,X,Xq.C ",
"{ 0.3.J.,X3XrXW.;X,X,X,X,X,Xi.S.`.'.^.A.J.J.,X,X,X,X,X,X,X,Xi.A.|.|.^.A.J.J.,X:X,X,XK.,X,X,X3X+.C %.3.q.,X,X6XwX;X,X,X:X,X,X6X;.",
"~ @.3.i.,X[.z.q.,X,X,X,X,X3X3X) S #.q.q.i.J.q.w.,X,X,X,X,X3X6X<.I / 5.q.i.J.w.q.,X,XK.q.J.|.^.b z +.@.q.J.3X(.l.;X,X,Xw.i.'.(.E ",
"+.2.p.J.,XJ.` %.<X,X,X3XoX*X`.i.,X,X,X3X,X,XJ.3.,X,X,X,X[.OX Xi.R.,X,X3X,X,XJ.3.J.,X>Xa.R.q._ 3 S @.5.J.J.,Xu.U w.<X>Xa.:Xi._ d ",
"_ G.tX<X,X,X8X3.q.;X6XoX$X`.u.7X,X,X,X,X,X,X,Xq.3.;X3XrXiX'.t.,X,X,X,X,X,X,X,Xi.' P.rXyX[.J.;.S C 2.wX8X<X,X8XJ._ G..XrX XJ.7.W ",
"d X.(.B.J.8X,Xq.J.3.w.V.:.2.wXu.a.,XJ.3.J.8XJ.q.J.q.w.l.*.^ [.i.p.,X,Xq.F.8X7Xw.H.w.n.n.^ S S E 3 b c.`.t.,X7Xi.i.i.n.N.{ S C ~ ",
"7 S +.i.q.y.J.,X,XJ.J.a.W E |.`.W.W.3.q.3.+.i.,X,XJ.J.a.{ V (.oX!.3X3.q.7.+.i.,X,XJ.p.J.w.S j 2 : g E 3.i.q.F.,X,X,Xp.J.F.[ j 6 ",
"S 3.J.qXi.%.w.F.,X,X,X<X;XS l.OXwX,X,X8X9.{ i.i.,X,X,X,X,X~ &.oXwX3X,X8Xw.~ i.i.,X,X3X,X1Xy.+.E # @.q.,X8X%.q.y.,X,X,X,X<XJ.+._ ",
"~ @.<.i.[ i.3.q.,X,X,X3X5X' '.$XoXwX,Xq.~ w.q.3.,X,X,X,X3X3.A.-XOXeX,Xq.C 7.J.3.,X,X,X,X[.[.2.S u @.@.q.7.+.a.@.J.,X,X,X[..X4.^ ",
"W ~ 3.w.w.J.,X,X,X6X[.oXP.<.{ C.'.Y.3.t.i.J.,X,X,X,X,X,XJ.3.~ k.'.^.7.%.F.J.,X,X,X,X[.%X@XA.~ W g W _ q.w.i.,X,X,X,X[.OX@X`./ { ",
"S @.J.8X,X,X,X,X,X,X,X,X;XJ.%.i.f.t.w.8X,X,X,X,X,X,X,X,X,XJ.3.t.a.u.3.8X,X,X,X,X,X,X3X3X,XJ.+.S g ~ 3.,X7X,X,X,X,X,X3X3X,X;X%.E ",
"~ 5.i.,X,X,X,X,X,X,X,X,X,XJ.w.8X3X,X7.XXwX,X,X,X,X,X,X,X,XK.q.7X3X,X0.J.,X,X,X,X,X,X,X>X>X<Xp.~ c @.q.H.,X,X,X,X,X,X,X>X>X<XJ.+.",
"%.q.+.i.,X,X,X,X,X,X3X6X5XH.i.,X,X7X;XN.[.oXwX,X,X,X,X6X6XJ.w.,X,X,X,Xq.J.,X,X,X,X,X,X6X6XW.p.{ C q.3.@.K.,X,X,X,X,X,X5X6X3Xp.%.",
"%.w.q.q.J.i.J.<X,X,X[.XXV.4.J.,X,Xi.q.4.a.i.J.,X,X,X!.XXA.3.F.,X,Xi.q.7.J.J.i.,X,X,X3X).(.N.@.z ~ 7.w.q.i.J.i.,X<X,X,X|.(.C.@.S ",
"C ~ 3.,X,Xy.~ +.%.+.@.E ! J.3X,X,XJ.q.J.7XF.~ { %.+.+.Q T J.7X,X,XJ.q.i.7XJ.+.~ %.%.%.W M J.i.j g S _ i.3X,X@.W %.%.%.{ t i.J.E ",
"7 <.J.,X,XJ.w.%.w.F.K.F.3.q.,X,X>X,X,X,X,XJ.i.%.+.i.J.J.7.J.>X,X>X,X,X,X,XJ.i.1.q.H.,X,XF.i.~ 2 & m i.,X,XJ.i.7.7.F.K.,XF.i.+.7 ",
"$ *.8X>X,X,X,X<X<X,X,X,X,Xp.[.$X[.,X,X,X,X,X,X8Xq.i.J.i.q.3.!.$XoX3X,X,X,X,X,X<X<X,X,X,X,X+.S 7 + 7 R.<X,X,X,X<X<X,X,X,X8X7.S f ",
"h F (.wXJ.i.,X,X,X,X,X,X,X,XF.|.#XoX'.`.p.J.,Xi.%.i.J.J.J.J.F.(.#XOX'.^.K.:X,X,X,X,X,X,Xw.E W 7 y d g.[.3Xu.J.,X,X,X,X,XF.E W g ",
"W _ v K >.;X>X,X,X,X,X,X>X,XK.) U +.3.3.q.@.~ 3.,X,X,X,X,X3X:XE P ~ 3.%.q.J.H.w.,X,X,X>Xa.:.& + p +.S G } B.>XJ.J.,X,X,Xa.w.3 % ",
"C %.@.; z.OX6X5X,X,X,X,XoXOX3X7.F.:X,X,X,X,X*.+.,X,X,X,X,X>X<X{ 7.,X,X,X,X,XJ._ J.8X3X6XyXZ.t u : { 3.B r |.yXF.w.8X3X3XyX'.V g ",
"& S B +.q.Z._.A.q.:X8XoX@X@XZ.3.8X,X,X,X,X,X<Xq.q.8X,X,X,X5XoXc.>X>X>X,X,X,XJ.~ z i.[.*X)._ +.j o 7 W B 7.e.).c.8 w.}.@X%X&._ S ",
"u +.i.J.<Xa.p.t.5.0.X.`.6XG. .S H.>X,X,X,X,X,X6X=.q.2XwXoXoX=XT.W.yXoXW.;XJ.J.,X0.{ W =.] +.[ : : j 7.i.,X,Xp.J.t.+.S =.' +. .5 ",
"y { 1X,X,X3X3XrX}.J x.[.!.G.~ o h.uX3X,X,X,X,XyX_.o.#X%X%XXXC.0 v x.S.F.,X<X3X6XyX7.@.q.i.3X+.X : g w.8XJ.,X3X5XuXB._ q.t.3X9.% ",
"j +.%.@.B.'.XX_.H Z 5XP.*.%.@.9 s b.N.i.G.'.#X#Xg.z !.3Xq.@.' j 9 ) 4.i.G.`.XXXXh.2 J.6XoXk.S f O ~ +.%.%.E.|.XXb.= w.8XoXS.S n ",
"u S g W @.%.%.' w W q.@.@.@.3.S k T ' @.@.%.q.i.B m 4.@.@.@.3.W C @.@.@.@.@.%.@.M g q.w.*.' @.u % C C j +.@.%.@.T 8 3.q.>.' @.j ",
"z S S @.@.@.@.3.W Z @.@.@.@.2.W S 3.%.@.@.@.@.@.W C +.@.@.@.@.W ~ +.@.@.@.@.@.3.@.C +._ @.@.C 3 1 S C ~ 3.@.@.@.%.C _ _ @.@.S y ",
"z W +.@.@.@.@.@.C [ +.%.3.@.2.{ c _ @.@.@.@.@.3.~ l %.%.@.@.2.W g @.@.@.@.@.3.+.W z W 9.3.W S 2 1 S ~ +.@.@.@.@.~ z S 7.q.~ S u ",
"u l c ~ @.@.@.3.C { ,XF.3.@.3.S W 7.7.+.+.@.@.3.~ 7 i.i.@.@.3.~ > +.2.@.@.1.i.3.+.z 7.i.%.2.C + & z g S +.@.@.@.@.C %.i.%.2.W % ",
"& u S @.@.@.+.+.~ 1 ! ` ` _ Q - z i.i.7.@.@.@.@.~ 3 T ' ` @._ w * @.2.@.@.@.@.2.{ 3 k ) ' @.+.E + 4 j ~ @.@.@.@.3.g 9 ( ` @.{ ~ ",
"5 i g +.<.@.+.q.C & z.P.L.w.A.j.2 W @.@.2.<.@.+.W < j.P.F.J.V.:.9 W @.@.@.@.@.+.z o o.E.G.,Xq.k O d i S @.@.+.;.[ < G `.G.,Xi.B ",
"_ ~ <.3.3.@.3.) q @ z.oX'.W.oXj.- W ` @.@.@.@.@.b o g. X'.~.[.k.e &.q.6.3.@.@.m q , G  X`.7.C > w +./ 6.3.@.2./ q , s '.'.w.S y ",
"E e.OX6X,X,X3X[. XG R ' ' @.t.B B ,X!.J.i.5.t.3.:.v I ' ' ' 5.@.C ;XyXrX,X,X,X6XOXg.t ,.` @.~ 5 8 _ `.yX3X,X,X6XyXz.q ' ` @._ g ",
"g v j.e.A.'.'._.Z.C @.%.@.@.3.z B L.|.`.3XrXrXiX#X| ~ 3.@.@.;.+.W 2.n.n.M.'.'.).(. .W 3.@.3.W 4 4 j | k.w.`.'.).).=.S 3.@.2.+.u ",
"g a R ' @.@.' ] ] S @.@.@.@.@.z W @.` ' >.m.m.m.3.Z { 2.@.@.2.+.W 3.' ' @.@.~ +.,.~ W 3.@.@._ 6 : z k ` @.@.@._ ' _ S 2.@.@.+.f ",
"u ~ { %.@.@.@.@.%.J ~ 2.@.@.+.c ~ 3.%.%.@.' ' ' _ C W 2.@.@.@.@.g ~ @.%.%.@.%.q.@.{ S @.@.q.w.f + C ~ ..@.@.@.3.3.+.S +.@.3.i.S ",
"u Z 7.J.i.3.q.w.i.W ~ @.@.@.3.W ~ 2.@.~ +.{ @.7.y.[ S @.@.@.2.+.W ~ +.@.@.0.i.q.F.3.C +.@.3.W 1 & z W F.J.q.3.q.y.q.C { @.3.{ y ",
"2 z c @.q.1.3.3.@.u S J @.@.3.Z C @.@.@.q.3.@.q.q.j W ^ +.@.3.S ~ 3.2.@.@.3.q.q.3.m j S ~ 3.@.: o g l W 3.7.@.3.q.W g J W 2.@.5 ",
"  u S +.@.@.@.{ j . & W @.@.E & u ~ @.@.@.@.@.@.B X 9 +.@.<.@.4 1 C +.@.@.@.@._ w + : g ~ @.n     & z W @.@.@.+.k $ & a W @.S O "
};
